;FLAVOR:RepRap
;TIME:450
;Filament used: 0.178405m
;Layer height: 0.2
;Generated with Cura_SteamEngine 4.0.0
T0
M82 ;absolute extrusion mode
M291 P"Tool Cartridge: X 250, Material: PLA, and Print Surface: PEI" R"This Calibration Uses" S3
M104 S190 T0 ; set extruder temp
M140 S45 ; set bed temp
M98 P/sys/Z-offset X 250.g ; Call tool offset
M98 P/sys/probeauto.g ; conduct auto bed level compensation
G1 X-8 Y20 F6000 ; position over purge bucket
M190 S45 ; wait for bed temp
M109 S190 T0; wait for extruder temp
M83
M572 D0 S0.069 ; set material pressure advance value
T0
;M221 S95
M116 ; Wait for temperatures
M291 P"Once printing has begun, use Baby Stepping to adjust the nozzle offset until you have a good first layer" R"Tool Offset Calibration" S2
G1 E20 F80 ; Prime
M98 P/sys/wipe.g ; wipe
M83 ;relative extrusion mode
G1 F4200 E-2
;LAYER_COUNT:1
;LAYER:0
M107
M204 T1500
M566 X600 Y600
G0 F9000 X204.386 Y203.388 Z0.2
M204 P1500
;TYPE:SKIRT
G1 F4200 E2
G1 F1200 X204.018 Y203.471 E0.00878
G1 X203.697 Y203.48 E0.00748
G1 X5.694 Y203.48 E4.60992
G1 X4.996 Y203.471 E0.01625
G1 X4.72 Y203.428 E0.0065
G1 X4.468 Y203.308 E0.0065
G1 X4.259 Y203.122 E0.00651
G1 X4.112 Y202.885 E0.00649
G1 X4.029 Y202.517 E0.00878
G1 X4.02 Y202.184 E0.00776
G1 X4.02 Y4.161 E4.61039
G1 X4.029 Y3.496 E0.01548
G1 X4.073 Y3.22 E0.00651
G1 X4.192 Y2.967 E0.00651
G1 X4.378 Y2.759 E0.0065
G1 X4.615 Y2.612 E0.00649
G1 X4.982 Y2.529 E0.00876
G1 X5.303 Y2.52 E0.00748
G1 X203.307 Y2.52 E4.60995
G1 X204.005 Y2.53 E0.01625
G1 X204.281 Y2.574 E0.00651
G1 X204.533 Y2.694 E0.0065
G1 X204.741 Y2.88 E0.0065
G1 X204.889 Y3.117 E0.00651
G1 X204.971 Y3.482 E0.00871
G1 X204.98 Y3.802 E0.00745
G1 X204.98 Y201.776 E4.60925
G1 X204.971 Y202.503 E0.01693
G1 X204.928 Y202.779 E0.0065
G1 X204.808 Y203.032 E0.00652
G1 X204.623 Y203.24 E0.00648
G1 X204.386 Y203.388 E0.00651
G1 F4200 E-2
G1 F2400 Z0.8
;MESH:Nautilus Offset Calibration 0.25.stl
G0 F9000 X24.61 Y23.11 Z0.8
;TYPE:WALL-INNER
G1 F2400 Z0.2
G1 F4200 E2
G1 F1200 X5.39 Y23.11 E0.44748
G1 X5.39 Y3.89 E0.44748
G1 X24.61 Y3.89 E0.44748
G1 X24.61 Y23.11 E0.44748
G1 F4200 E-2
G1 F2400 Z0.8
G0 F9000 X184.39 Y23.11 Z0.8
G1 F2400 Z0.2
G1 F4200 E2
G1 F1200 X184.39 Y3.89 E0.44748
G1 X203.61 Y3.89 E0.44748
G1 X203.61 Y23.11 E0.44748
G1 X184.39 Y23.11 E0.44748
G1 F4200 E-2
G1 F2400 Z0.8
G0 F9000 X184.39 Y182.89 Z0.8
G1 F2400 Z0.2
G1 F4200 E2
G1 F1200 X203.61 Y182.89 E0.44748
G1 X203.61 Y202.11 E0.44748
G1 X184.39 Y202.11 E0.44748
G1 X184.39 Y182.89 E0.44748
G1 F4200 E-2
G1 F2400 Z0.8
G0 F9000 X24.61 Y182.89 Z0.8
G1 F2400 Z0.2
G1 F4200 E2
G1 F1200 X24.61 Y202.11 E0.44748
G1 X5.39 Y202.11 E0.44748
G1 X5.39 Y182.89 E0.44748
G1 X24.61 Y182.89 E0.44748
G1 F4200 E-2
G1 F2400 Z0.8
G0 F9000 X184.125 Y202.125 Z0.8
;TYPE:WALL-OUTER
G1 F2400 Z0.2
G1 F4200 E2
G1 F1200 X184.125 Y182.625 E0.40536
G1 X203.625 Y182.625 E0.40536
G1 X203.625 Y23.375 E3.31042
G1 X184.125 Y23.375 E0.40536
G1 X184.125 Y3.875 E0.40536
G1 X24.875 Y3.875 E3.31042
G1 X24.875 Y23.375 E0.40536
G1 X5.375 Y23.375 E0.40536
G1 X5.375 Y182.625 E3.31042
G1 X24.875 Y182.625 E0.40536
G1 X24.875 Y202.125 E0.40536
G1 X184.125 Y202.125 E3.31042
G0 F9000 X184.125 Y202
G0 X184.4 Y202
G0 X184.125 Y202.375
G1 F1200 X24.875 Y202.375 E3.31042
G1 X5.125 Y202.375 E0.41055
G1 X5.125 Y182.625 E0.41055
G1 X5.125 Y23.375 E3.31042
G1 X5.125 Y3.625 E0.41055
G1 X24.875 Y3.625 E0.41055
G1 X184.125 Y3.625 E3.31042
G1 X203.875 Y3.625 E0.41055
G1 X203.875 Y23.375 E0.41055
G1 X203.875 Y182.625 E3.31042
G1 X203.875 Y202.375 E0.41055
G1 X184.125 Y202.375 E0.41055
G0 F9000 X184 Y202.375
G0 X184.67 Y201.83
;TYPE:WALL-INNER
G1 F1200 X184.67 Y183.17 E0.43444
G1 X203.33 Y183.17 E0.43444
G1 X203.33 Y201.83 E0.43444
G1 X184.67 Y201.83 E0.43444
G1 F4200 E-2
G1 F2400 Z0.8
G0 F9000 X24.33 Y201.83 Z0.8
G1 F2400 Z0.2
G1 F4200 E2
G1 F1200 X5.67 Y201.83 E0.43444
G1 X5.67 Y183.17 E0.43444
G1 X24.33 Y183.17 E0.43444
G1 X24.33 Y201.83 E0.43444
G1 F4200 E-2
G1 F2400 Z0.8
G0 F9000 X24.33 Y22.83 Z0.8
G1 F2400 Z0.2
G1 F4200 E2
G1 F1200 X5.67 Y22.83 E0.43444
G1 X5.67 Y4.17 E0.43444
G1 X24.33 Y4.17 E0.43444
G1 X24.33 Y22.83 E0.43444
G1 F4200 E-2
G1 F2400 Z0.8
G0 F9000 X184.67 Y22.83 Z0.8
G1 F2400 Z0.2
G1 F4200 E2
G1 F1200 X184.67 Y4.17 E0.43444
G1 X203.33 Y4.17 E0.43444
G1 X203.33 Y22.83 E0.43444
G1 X184.67 Y22.83 E0.43444
G0 F9000 X184.94 Y22.56
;TYPE:SKIN
G1 F1200 X184.94 Y4.44 E0.42187
G1 X203.06 Y4.44 E0.42187
G1 X203.06 Y22.56 E0.42187
G1 X184.94 Y22.56 E0.42187
G0 F9000 X185.408 Y22.42
;TYPE:SKIN
G1 F1200 X185.078 Y22.09 E0.0097
G0 F9000 X185.078 Y21.737
G1 F1200 X185.761 Y22.42 E0.02008
G0 F9000 X186.115 Y22.42
G1 F1200 X185.078 Y21.383 E0.03049
G0 F9000 X185.078 Y21.03
G1 F1200 X186.469 Y22.42 E0.04088
G0 F9000 X186.822 Y22.42
G1 F1200 X185.078 Y20.676 E0.05127
G0 F9000 X185.078 Y20.322
G1 F1200 X187.176 Y22.42 E0.06168
G0 F9000 X187.529 Y22.42
G1 F1200 X185.078 Y19.969 E0.07205
G0 F9000 X185.078 Y19.615
G1 F1200 X187.883 Y22.42 E0.08246
G0 F9000 X188.236 Y22.42
G1 F1200 X185.078 Y19.262 E0.09284
G0 F9000 X185.078 Y18.908
G1 F1200 X188.59 Y22.42 E0.10325
G0 F9000 X188.943 Y22.42
G1 F1200 X185.078 Y18.555 E0.11362
G0 F9000 X185.078 Y18.201
G1 F1200 X189.297 Y22.42 E0.12403
G0 F9000 X189.65 Y22.42
G1 F1200 X185.078 Y17.848 E0.13441
G0 F9000 X185.078 Y17.494
G1 F1200 X190.004 Y22.42 E0.14481
G0 F9000 X190.358 Y22.42
G1 F1200 X185.078 Y17.14 E0.15522
G0 F9000 X185.078 Y16.787
G1 F1200 X190.711 Y22.42 E0.1656
G0 F9000 X191.065 Y22.42
G1 F1200 X185.078 Y16.433 E0.17601
G0 F9000 X185.078 Y16.08
G1 F1200 X191.418 Y22.42 E0.18638
G0 F9000 X191.772 Y22.42
G1 F1200 X185.078 Y15.726 E0.19679
G0 F9000 X185.078 Y15.373
G1 F1200 X192.125 Y22.42 E0.20717
G0 F9000 X192.479 Y22.42
G1 F1200 X185.078 Y15.019 E0.21758
G0 F9000 X185.078 Y14.666
G1 F1200 X192.832 Y22.42 E0.22795
G0 F9000 X193.186 Y22.42
G1 F1200 X185.078 Y14.312 E0.23836
G0 F9000 X185.078 Y13.958
G1 F1200 X193.54 Y22.42 E0.24877
G0 F9000 X193.893 Y22.42
G1 F1200 X185.078 Y13.605 E0.25914
G0 F9000 X185.078 Y13.251
G1 F1200 X194.247 Y22.42 E0.26955
G0 F9000 X194.6 Y22.42
G1 F1200 X185.078 Y12.898 E0.27993
G0 F9000 X185.078 Y12.544
G1 F1200 X194.954 Y22.42 E0.29034
G0 F9000 X195.307 Y22.42
G1 F1200 X185.078 Y12.191 E0.30071
G0 F9000 X185.078 Y11.837
G1 F1200 X195.661 Y22.42 E0.31112
G0 F9000 X196.014 Y22.42
G1 F1200 X185.078 Y11.484 E0.3215
G0 F9000 X185.078 Y11.13
G1 F1200 X196.368 Y22.42 E0.3319
G0 F9000 X196.722 Y22.42
G1 F1200 X185.078 Y10.777 E0.3423
G0 F9000 X185.078 Y10.423
G1 F1200 X197.075 Y22.42 E0.35269
G0 F9000 X197.429 Y22.42
G1 F1200 X185.078 Y10.069 E0.3631
G0 F9000 X185.078 Y9.716
G1 F1200 X197.782 Y22.42 E0.37347
G0 F9000 X198.136 Y22.42
G1 F1200 X185.078 Y9.362 E0.38388
G0 F9000 X185.078 Y9.009
G1 F1200 X198.489 Y22.42 E0.39426
G0 F9000 X198.843 Y22.42
G1 F1200 X185.078 Y8.655 E0.40466
G0 F9000 X185.078 Y8.302
G1 F1200 X199.196 Y22.42 E0.41504
G0 F9000 X199.55 Y22.42
G1 F1200 X185.078 Y7.948 E0.42545
G0 F9000 X185.078 Y7.595
G1 F1200 X199.904 Y22.42 E0.43584
G0 F9000 X200.257 Y22.42
G1 F1200 X185.078 Y7.241 E0.44623
G0 F9000 X185.078 Y6.887
G1 F1200 X200.611 Y22.42 E0.45664
G0 F9000 X200.964 Y22.42
G1 F1200 X185.078 Y6.534 E0.46702
G0 F9000 X185.078 Y6.18
G1 F1200 X201.318 Y22.42 E0.47742
G0 F9000 X201.671 Y22.42
G1 F1200 X185.078 Y5.827 E0.4878
G0 F9000 X185.078 Y5.473
G1 F1200 X202.025 Y22.42 E0.49821
G0 F9000 X202.378 Y22.42
G1 F1200 X185.078 Y5.12 E0.50859
G0 F9000 X185.078 Y4.766
G1 F1200 X202.732 Y22.42 E0.51899
G0 F9000 X202.919 Y22.253
G1 F1200 X185.245 Y4.579 E0.51958
G0 F9000 X185.599 Y4.579
G1 F1200 X202.919 Y21.899 E0.50917
G0 F9000 X202.919 Y21.546
G1 F1200 X185.952 Y4.579 E0.4988
G0 F9000 X186.306 Y4.579
G1 F1200 X202.919 Y21.192 E0.48839
G0 F9000 X202.919 Y20.839
G1 F1200 X186.659 Y4.579 E0.47801
G0 F9000 X187.013 Y4.579
G1 F1200 X202.919 Y20.485 E0.46761
G0 F9000 X202.919 Y20.132
G1 F1200 X187.367 Y4.579 E0.45721
G0 F9000 X187.72 Y4.579
G1 F1200 X202.919 Y19.778 E0.44682
G0 F9000 X202.919 Y19.424
G1 F1200 X188.074 Y4.579 E0.43641
G0 F9000 X188.427 Y4.579
G1 F1200 X202.919 Y19.071 E0.42604
G0 F9000 X202.919 Y18.717
G1 F1200 X188.781 Y4.579 E0.41563
G0 F9000 X189.134 Y4.579
G1 F1200 X202.919 Y18.364 E0.40525
G0 F9000 X202.919 Y18.01
G1 F1200 X189.488 Y4.579 E0.39485
G0 F9000 X189.841 Y4.579
G1 F1200 X202.919 Y17.657 E0.38447
G0 F9000 X202.919 Y17.303
G1 F1200 X190.195 Y4.579 E0.37406
G0 F9000 X190.549 Y4.579
G1 F1200 X202.919 Y16.95 E0.36367
G0 F9000 X202.919 Y16.596
G1 F1200 X190.902 Y4.579 E0.35328
G0 F9000 X191.256 Y4.579
G1 F1200 X202.919 Y16.242 E0.34287
G0 F9000 X202.919 Y15.889
G1 F1200 X191.609 Y4.579 E0.33249
G0 F9000 X191.963 Y4.579
G1 F1200 X202.919 Y15.535 E0.32209
G0 F9000 X202.919 Y15.182
G1 F1200 X192.316 Y4.579 E0.31171
G0 F9000 X192.67 Y4.579
G1 F1200 X202.919 Y14.828 E0.3013
G0 F9000 X202.919 Y14.475
G1 F1200 X193.023 Y4.579 E0.29092
G0 F9000 X193.377 Y4.579
G1 F1200 X202.919 Y14.121 E0.28052
G0 F9000 X202.919 Y13.768
G1 F1200 X193.73 Y4.579 E0.27014
G0 F9000 X194.084 Y4.579
G1 F1200 X202.919 Y13.414 E0.25973
G0 F9000 X202.919 Y13.06
G1 F1200 X194.438 Y4.579 E0.24933
G0 F9000 X194.791 Y4.579
G1 F1200 X202.919 Y12.707 E0.23895
G0 F9000 X202.919 Y12.353
G1 F1200 X195.145 Y4.579 E0.22854
G0 F9000 X195.498 Y4.579
G1 F1200 X202.919 Y12 E0.21816
G0 F9000 X202.919 Y11.646
G1 F1200 X195.852 Y4.579 E0.20776
G0 F9000 X196.205 Y4.579
G1 F1200 X202.919 Y11.293 E0.19738
G0 F9000 X202.919 Y10.939
G1 F1200 X196.559 Y4.579 E0.18697
G0 F9000 X196.912 Y4.579
G1 F1200 X202.919 Y10.586 E0.17659
G0 F9000 X202.919 Y10.232
G1 F1200 X197.266 Y4.579 E0.16619
G0 F9000 X197.62 Y4.579
G1 F1200 X202.919 Y9.878 E0.15578
G0 F9000 X202.919 Y9.525
G1 F1200 X197.973 Y4.579 E0.1454
G0 F9000 X198.327 Y4.579
G1 F1200 X202.919 Y9.171 E0.135
G0 F9000 X202.919 Y8.818
G1 F1200 X198.68 Y4.579 E0.12462
G0 F9000 X199.034 Y4.579
G1 F1200 X202.919 Y8.464 E0.11421
G0 F9000 X202.919 Y8.111
G1 F1200 X199.387 Y4.579 E0.10383
G0 F9000 X199.741 Y4.579
G1 F1200 X202.919 Y7.757 E0.09343
G0 F9000 X202.919 Y7.404
G1 F1200 X200.094 Y4.579 E0.08305
G0 F9000 X200.448 Y4.579
G1 F1200 X202.919 Y7.05 E0.07264
G0 F9000 X202.919 Y6.697
G1 F1200 X200.802 Y4.579 E0.06225
G0 F9000 X201.155 Y4.579
G1 F1200 X202.919 Y6.343 E0.05186
G0 F9000 X202.919 Y5.989
G1 F1200 X201.509 Y4.579 E0.04145
G0 F9000 X201.862 Y4.579
G1 F1200 X202.919 Y5.636 E0.03107
G0 F9000 X202.919 Y5.282
G1 F1200 X202.216 Y4.579 E0.02067
G0 F9000 X202.569 Y4.579
G1 F1200 X202.919 Y4.929 E0.01029
G1 F4200 E-2
G1 F2400 Z0.8
G0 F9000 X203.06 Y183.44 Z0.8
;TYPE:SKIN
G1 F2400 Z0.2
G1 F4200 E2
G1 F1200 X203.06 Y201.56 E0.42187
G1 X184.94 Y201.56 E0.42187
G1 X184.94 Y183.44 E0.42187
G1 X203.06 Y183.44 E0.42187
G0 F9000 X202.919 Y183.827
;TYPE:SKIN
G1 F1200 X202.671 Y183.579 E0.00729
G0 F9000 X202.318 Y183.579
G1 F1200 X202.919 Y184.18 E0.01767
G0 F9000 X202.919 Y184.534
G1 F1200 X201.964 Y183.579 E0.02808
G0 F9000 X201.61 Y183.579
G1 F1200 X202.919 Y184.887 E0.03847
G0 F9000 X202.919 Y185.241
G1 F1200 X201.257 Y183.579 E0.04886
G0 F9000 X200.903 Y183.579
G1 F1200 X202.919 Y185.595 E0.05927
G0 F9000 X202.919 Y185.948
G1 F1200 X200.55 Y183.579 E0.06964
G0 F9000 X200.196 Y183.579
G1 F1200 X202.919 Y186.302 E0.08005
G0 F9000 X202.919 Y186.655
G1 F1200 X199.843 Y183.579 E0.09043
G0 F9000 X199.489 Y183.579
G1 F1200 X202.919 Y187.009 E0.10084
G0 F9000 X202.919 Y187.362
G1 F1200 X199.136 Y183.579 E0.11121
G0 F9000 X198.782 Y183.579
G1 F1200 X202.919 Y187.716 E0.12162
G0 F9000 X202.919 Y188.069
G1 F1200 X198.429 Y183.579 E0.132
G0 F9000 X198.075 Y183.579
G1 F1200 X202.919 Y188.423 E0.1424
G0 F9000 X202.919 Y188.777
G1 F1200 X197.721 Y183.579 E0.15281
G0 F9000 X197.368 Y183.579
G1 F1200 X202.919 Y189.13 E0.16319
G0 F9000 X202.919 Y189.484
G1 F1200 X197.014 Y183.579 E0.1736
G0 F9000 X196.661 Y183.579
G1 F1200 X202.919 Y189.837 E0.18397
G0 F9000 X202.919 Y190.191
G1 F1200 X196.307 Y183.579 E0.19438
G0 F9000 X195.954 Y183.579
G1 F1200 X202.919 Y190.544 E0.20476
G0 F9000 X202.919 Y190.898
G1 F1200 X195.6 Y183.579 E0.21516
G0 F9000 X195.247 Y183.579
G1 F1200 X202.919 Y191.251 E0.22554
G0 F9000 X202.919 Y191.605
G1 F1200 X194.893 Y183.579 E0.23595
G0 F9000 X194.539 Y183.579
G1 F1200 X202.919 Y191.958 E0.24634
G0 F9000 X202.919 Y192.312
G1 F1200 X194.186 Y183.579 E0.25673
G0 F9000 X193.832 Y183.579
G1 F1200 X202.919 Y192.666 E0.26714
G0 F9000 X202.919 Y193.019
G1 F1200 X193.479 Y183.579 E0.27752
G0 F9000 X193.125 Y183.579
G1 F1200 X202.919 Y193.373 E0.28792
G0 F9000 X202.919 Y193.726
G1 F1200 X192.772 Y183.579 E0.2983
G0 F9000 X192.418 Y183.579
G1 F1200 X202.919 Y194.08 E0.30871
G0 F9000 X202.919 Y194.433
G1 F1200 X192.065 Y183.579 E0.31909
G0 F9000 X191.711 Y183.579
G1 F1200 X202.919 Y194.787 E0.32949
G0 F9000 X202.919 Y195.14
G1 F1200 X191.357 Y183.579 E0.33989
G0 F9000 X191.004 Y183.579
G1 F1200 X202.919 Y195.494 E0.35028
G0 F9000 X202.919 Y195.848
G1 F1200 X190.65 Y183.579 E0.36069
G0 F9000 X190.297 Y183.579
G1 F1200 X202.919 Y196.201 E0.37106
G0 F9000 X202.919 Y196.555
G1 F1200 X189.943 Y183.579 E0.38147
G0 F9000 X189.59 Y183.579
G1 F1200 X202.919 Y196.908 E0.39185
G0 F9000 X202.919 Y197.262
G1 F1200 X189.236 Y183.579 E0.40225
G0 F9000 X188.883 Y183.579
G1 F1200 X202.919 Y197.615 E0.41263
G0 F9000 X202.919 Y197.969
G1 F1200 X188.529 Y183.579 E0.42304
G0 F9000 X188.175 Y183.579
G1 F1200 X202.919 Y198.322 E0.43343
G0 F9000 X202.919 Y198.676
G1 F1200 X187.822 Y183.579 E0.44382
G0 F9000 X187.468 Y183.579
G1 F1200 X202.919 Y199.03 E0.45423
G0 F9000 X202.919 Y199.383
G1 F1200 X187.115 Y183.579 E0.46461
G0 F9000 X186.761 Y183.579
G1 F1200 X202.919 Y199.737 E0.47501
G0 F9000 X202.919 Y200.09
G1 F1200 X186.408 Y183.579 E0.48539
G0 F9000 X186.054 Y183.579
G1 F1200 X202.919 Y200.444 E0.4958
G0 F9000 X202.919 Y200.797
G1 F1200 X185.701 Y183.579 E0.50618
G0 F9000 X185.347 Y183.579
G1 F1200 X202.919 Y201.151 E0.51658
G0 F9000 X202.833 Y201.419
G1 F1200 X185.078 Y183.664 E0.52196
G0 F9000 X185.078 Y184.018
G1 F1200 X202.48 Y201.419 E0.51157
G0 F9000 X202.126 Y201.419
G1 F1200 X185.078 Y184.371 E0.50118
G0 F9000 X185.078 Y184.725
G1 F1200 X201.772 Y201.419 E0.49077
G0 F9000 X201.419 Y201.419
G1 F1200 X185.078 Y185.078 E0.48039
G0 F9000 X185.078 Y185.432
G1 F1200 X201.065 Y201.419 E0.46999
G0 F9000 X200.712 Y201.419
G1 F1200 X185.078 Y185.785 E0.45961
G0 F9000 X185.078 Y186.139
G1 F1200 X200.358 Y201.419 E0.4492
G0 F9000 X200.005 Y201.419
G1 F1200 X185.078 Y186.493 E0.43881
G0 F9000 X185.078 Y186.846
G1 F1200 X199.651 Y201.419 E0.42842
G0 F9000 X199.298 Y201.419
G1 F1200 X185.078 Y187.2 E0.41803
G0 F9000 X185.078 Y187.553
G1 F1200 X198.944 Y201.419 E0.40763
G0 F9000 X198.59 Y201.419
G1 F1200 X185.078 Y187.907 E0.39723
G0 F9000 X185.078 Y188.26
G1 F1200 X198.237 Y201.419 E0.38685
G0 F9000 X197.883 Y201.419
G1 F1200 X185.078 Y188.614 E0.37644
G0 F9000 X185.078 Y188.967
G1 F1200 X197.53 Y201.419 E0.36606
G0 F9000 X197.176 Y201.419
G1 F1200 X185.078 Y189.321 E0.35566
G0 F9000 X185.078 Y189.675
G1 F1200 X196.823 Y201.419 E0.34527
G0 F9000 X196.469 Y201.419
G1 F1200 X185.078 Y190.028 E0.33487
G0 F9000 X185.078 Y190.382
G1 F1200 X196.116 Y201.419 E0.32448
G0 F9000 X195.762 Y201.419
G1 F1200 X185.078 Y190.735 E0.31409
G0 F9000 X185.078 Y191.089
G1 F1200 X195.408 Y201.419 E0.30368
G0 F9000 X195.055 Y201.419
G1 F1200 X185.078 Y191.442 E0.2933
G0 F9000 X185.078 Y191.796
G1 F1200 X194.701 Y201.419 E0.2829
G0 F9000 X194.348 Y201.419
G1 F1200 X185.078 Y192.149 E0.27252
G0 F9000 X185.078 Y192.503
G1 F1200 X193.994 Y201.419 E0.26211
G0 F9000 X193.641 Y201.419
G1 F1200 X185.078 Y192.857 E0.25172
G0 F9000 X185.078 Y193.21
G1 F1200 X193.287 Y201.419 E0.24133
G0 F9000 X192.934 Y201.419
G1 F1200 X185.078 Y193.564 E0.23094
G0 F9000 X185.078 Y193.917
G1 F1200 X192.58 Y201.419 E0.22054
G0 F9000 X192.226 Y201.419
G1 F1200 X185.078 Y194.271 E0.21014
G0 F9000 X185.078 Y194.624
G1 F1200 X191.873 Y201.419 E0.19976
G0 F9000 X191.519 Y201.419
G1 F1200 X185.078 Y194.978 E0.18935
G0 F9000 X185.078 Y195.331
G1 F1200 X191.166 Y201.419 E0.17898
G0 F9000 X190.812 Y201.419
G1 F1200 X185.078 Y195.685 E0.16857
G0 F9000 X185.078 Y196.038
G1 F1200 X190.459 Y201.419 E0.15819
