;FLAVOR:RepRap
;TIME:1054
;Filament used: 1.16815m
;Layer height: 0.2
;MINX:72.642
;MINY:71.264
;MINZ:0.25
;MAXX:136.021
;MAXY:134.74
;MAXZ:4.25
;Generated with Cura_SteamEngine 4.1.0
T0
M82 ;absolute extrusion mode
M291 P"Tool Cartridge: X 400, Material: PLA - Generic, and Print Surface: PEI" R"This Job Uses" S3
M140 S55 ; set bed probing temp
M98 P/sys/Z-offset X 400.g ; Call tool offset
M291 P"Waiting to reach bed probing temperature..." R"Auto Level Compensation" S1 T0
M190 S55 ; wait for bed probing temp
M104 S210 T0 ; set extruder temp
M140 S55 ; set bed temp layer 0
G4 S30
M98 P/sys/probeauto.g ; conduct auto bed level compensation
G1 X-8 Y20 F6000 ; position over purge bucket
M190 S55 ; wait for bed temp
M109 S210 T0; wait for extruder temp
M83
M572 D0 S0.047 ; set material pressure advance value
T0
M116 ; Wait for temperatures
G1 E20 F80 ; Prime
M98 P/sys/wipe.g ; wipe
M83 ;relative extrusion mode
G1 F2100 E-2
;LAYER_COUNT:18
;LAYER:0
M107
M204 T1000
M566 X600 Y600
G0 F9000 X115.458 Y117.742 Z0.25
M204 P1000
;TYPE:SKIRT
G1 F2100 E2
G1 F1200 X115.148 Y118.002 E0.01985
G1 X114.83 Y118.181 E0.0179
G1 X114.036 Y118.538 E0.04271
G1 X113.984 Y118.561 E0.00279
G1 X76.118 Y134.339 E2.01247
G1 X76.094 Y134.348 E0.00126
G1 X75.49 Y134.591 E0.03194
G1 X75.101 Y134.705 E0.01989
G1 X74.697 Y134.74 E0.01989
G1 X74.295 Y134.695 E0.01984
G1 X73.908 Y134.572 E0.01992
G1 X73.554 Y134.376 E0.01985
G1 X73.244 Y134.114 E0.01991
G1 X72.992 Y133.797 E0.01987
G1 X72.807 Y133.436 E0.0199
G1 X72.697 Y133.047 E0.01983
G1 X72.664 Y132.725 E0.01588
G1 X72.642 Y131.67 E0.05177
G1 X72.642 Y100.646 E1.522
G1 X72.652 Y99.948 E0.03425
G1 X72.698 Y99.545 E0.0199
G1 X72.822 Y99.159 E0.01989
G1 X73.019 Y98.805 E0.01987
G1 X73.158 Y98.626 E0.01112
G1 X73.507 Y98.224 E0.02612
G1 X75.332 Y96.088 E0.13783
G1 X77.066 Y93.939 E0.13547
G1 X78.76 Y91.712 E0.13727
G1 X80.34 Y89.508 E0.13304
G1 X81.923 Y87.164 E0.13876
G1 X82.53 Y86.208 E0.05556
G1 X82.546 Y86.183 E0.00146
G1 X82.976 Y85.527 E0.03848
G1 X83.145 Y85.303 E0.01377
G1 X83.511 Y84.883 E0.02733
G1 X85.321 Y82.766 E0.13664
G1 X87.062 Y80.608 E0.13603
G1 X88.733 Y78.415 E0.13526
G1 X90.358 Y76.15 E0.13676
G1 X91.888 Y73.886 E0.13405
G1 X92.516 Y72.895 E0.05756
G1 X92.533 Y72.87 E0.00148
G1 X92.976 Y72.194 E0.03965
G1 X93.23 Y71.879 E0.01985
G1 X93.541 Y71.619 E0.01989
G1 X93.898 Y71.426 E0.01991
G1 X94.285 Y71.306 E0.01988
G1 X94.688 Y71.264 E0.01988
G1 X95.091 Y71.302 E0.01986
G1 X95.449 Y71.406 E0.01829
G1 X96.415 Y71.785 E0.05091
G1 X96.455 Y71.801 E0.00211
G1 X134.105 Y87.489 E2.00099
G1 X134.132 Y87.501 E0.00145
G1 X134.782 Y87.783 E0.03476
G1 X135.136 Y87.98 E0.01987
G1 X135.445 Y88.243 E0.01991
G1 X135.696 Y88.561 E0.01987
G1 X135.88 Y88.922 E0.01988
G1 X135.989 Y89.312 E0.01987
G1 X136.021 Y89.716 E0.01988
G1 X135.972 Y90.119 E0.01992
G1 X135.845 Y90.504 E0.01989
G1 X135.532 Y91.003 E0.0289
G1 X135.132 Y91.474 E0.03031
G1 X135.111 Y91.498 E0.00156
G1 X134.076 Y92.68 E0.07708
G1 X132.314 Y94.812 E0.13569
G1 X130.618 Y96.985 E0.13523
G1 X128.98 Y99.214 E0.1357
G1 X127.392 Y101.507 E0.13683
G1 X125.712 Y104.092 E0.15125
G1 X125.563 Y104.294 E0.01231
G1 X125.157 Y104.778 E0.03099
G1 X125.129 Y104.81 E0.00209
G1 X124.074 Y106.015 E0.07857
G1 X122.314 Y108.145 E0.13555
G1 X120.618 Y110.318 E0.13523
G1 X118.98 Y112.547 E0.1357
G1 X117.392 Y114.84 E0.13683
G1 X115.712 Y117.425 E0.15125
G1 X115.458 Y117.742 E0.01993
G0 F9000 X115.09 Y117.443
G1 F1200 X114.808 Y117.66 E0.01746
G1 X114.636 Y117.751 E0.00955
G1 X113.842 Y118.108 E0.04271
G1 X113.802 Y118.125 E0.00213
G1 X75.936 Y133.903 E2.01247
G1 X75.918 Y133.91 E0.00095
G1 X75.314 Y134.153 E0.03194
G1 X74.971 Y134.248 E0.01746
G1 X74.616 Y134.264 E0.01743
G1 X74.266 Y134.201 E0.01745
G1 X73.939 Y134.061 E0.01745
G1 X73.651 Y133.852 E0.01746
G1 X73.418 Y133.584 E0.01742
G1 X73.249 Y133.271 E0.01745
G1 X73.155 Y132.928 E0.01745
G1 X73.136 Y132.715 E0.01049
G1 X73.114 Y131.66 E0.05177
G1 X73.114 Y100.652 E1.52121
G1 X73.124 Y99.954 E0.03425
G1 X73.169 Y99.601 E0.01746
G1 X73.292 Y99.268 E0.01742
G1 X73.514 Y98.936 E0.01959
G1 X73.866 Y98.531 E0.02632
G1 X75.693 Y96.392 E0.138
G1 X77.44 Y94.226 E0.13652
G1 X79.115 Y92.025 E0.13569
G1 X80.745 Y89.752 E0.13722
G1 X82.3 Y87.45 E0.13628
G1 X82.928 Y86.461 E0.05747
G1 X82.941 Y86.442 E0.00113
G1 X83.371 Y85.786 E0.03848
G1 X83.501 Y85.613 E0.01062
G1 X83.867 Y85.193 E0.02733
G1 X85.666 Y83.09 E0.13577
G1 X87.442 Y80.888 E0.13878
G1 X89.11 Y78.698 E0.13505
G1 X90.751 Y76.411 E0.13809
G1 X92.295 Y74.125 E0.13533
G1 X92.915 Y73.148 E0.05677
G1 X92.927 Y73.129 E0.0011
G1 X93.37 Y72.453 E0.03965
G1 X93.598 Y72.179 E0.01749
G1 X93.88 Y71.963 E0.01743
G1 X94.203 Y71.815 E0.01743
G1 X94.552 Y71.743 E0.01748
G1 X94.907 Y71.75 E0.01742
G1 X95.276 Y71.846 E0.01871
G1 X96.242 Y72.225 E0.05091
G1 X96.273 Y72.237 E0.00163
G1 X133.923 Y87.925 E2.00099
G1 X133.944 Y87.934 E0.00112
G1 X134.594 Y88.216 E0.03476
G1 X134.903 Y88.393 E0.01747
G1 X135.164 Y88.635 E0.01746
G1 X135.364 Y88.928 E0.0174
G1 X135.495 Y89.259 E0.01746
G1 X135.548 Y89.611 E0.01746
G1 X135.521 Y89.966 E0.01747
G1 X135.417 Y90.305 E0.0174
G1 X135.172 Y90.698 E0.02272
G1 X134.772 Y91.169 E0.03031
G1 X134.756 Y91.187 E0.00118
G1 X133.707 Y92.385 E0.07812
G1 X131.962 Y94.496 E0.13436
G1 X130.235 Y96.709 E0.13771
G1 X128.594 Y98.943 E0.13599
G1 X127.001 Y101.243 E0.13726
G1 X125.316 Y103.835 E0.15167
G1 X125.201 Y103.99 E0.00947
G1 X124.795 Y104.474 E0.03099
G1 X124.773 Y104.5 E0.00167
G1 X123.707 Y105.718 E0.07941
G1 X121.962 Y107.829 E0.13436
G1 X120.235 Y110.042 E0.13771
G1 X118.601 Y112.265 E0.13535
G1 X117.001 Y114.576 E0.1379
G1 X115.316 Y117.168 E0.15167
G1 X115.09 Y117.443 E0.01746
G1 F2100 E-2
G1 F2400 Z0.85
;MESH:HR Logo Puzzle.stl
G0 F9000 X118.475 Y103.605 Z0.85
;TYPE:WALL-INNER
G1 F2400 Z0.25
G1 F2100 E2
G1 F1200 X118.475 Y102.396 E0.05931
G1 X117.385 Y101.94 E0.05796
G1 X98.408 Y94.033 E1.00857
G1 X98.408 Y93.466 E0.02782
G1 X98.408 Y93.464 E0.0001
G1 X98.408 Y93.113 E0.01722
G1 X98.733 Y93.248 E0.01008
G1 X121.616 Y102.783 E1.21617
G1 X122.137 Y103 E0.02769
G1 X121.616 Y103.217 E0.0149
G1 X103.932 Y110.584 E0.93983
G1 X103.351 Y110.342 E0.03088
G1 X102.83 Y110.125 E0.02769
G1 X103.351 Y109.908 E0.0149
G1 X118.475 Y103.605 E0.80382
G0 F9000 X118.003 Y103.29
;TYPE:WALL-OUTER
G1 F1200 X118.003 Y102.71 E0.02845
G1 X117.203 Y102.375 E0.04255
G1 X97.936 Y94.347 E1.02398
G1 X97.936 Y92.758 E0.07795
G1 X97.936 Y92.757 E0.00005
G1 X97.936 Y92.404 E0.01732
G1 X98.262 Y92.54 E0.01012
G1 X122.843 Y102.783 E1.30642
G1 X123.365 Y103 E0.02773
G1 X122.843 Y103.217 E0.01492
G1 X103.933 Y111.096 E1.00501
G1 X102.124 Y110.342 E0.09615
G1 X101.602 Y110.125 E0.02773
G1 X102.124 Y109.908 E0.01492
G1 X118.003 Y103.29 E0.84395
G0 F9000 X118.003 Y103.09
G0 X118.522 Y103.09
G0 X118.937 Y103.832
;TYPE:SKIN
G1 F1200 X118.937 Y102.168 E0.08163
G1 X120.934 Y103 E0.10613
G1 X118.937 Y103.832 E0.10613
G0 F9000 X119.402 Y103.381
G1 F1200 X119.172 Y103.152 E0.01592
G0 F9000 X119.236 Y102.548
G1 F1200 X119.872 Y103.185 E0.04416
G0 F9000 X118.685 Y104.047
;TYPE:SKIN
G1 F1200 X118.49 Y103.853 E0.00643
G0 F9000 X118.266 Y103.947
G1 F1200 X118.554 Y104.236 E0.00954
G0 F9000 X118.33 Y104.329
G1 F1200 X118.041 Y104.04 E0.00956
G0 F9000 X117.816 Y104.134
G1 F1200 X118.105 Y104.423 E0.00956
G0 F9000 X117.881 Y104.516
G1 F1200 X117.592 Y104.228 E0.00954
G0 F9000 X117.367 Y104.321
G1 F1200 X117.656 Y104.61 E0.00956
G0 F9000 X117.432 Y104.704
G1 F1200 X117.143 Y104.415 E0.00956
G0 F9000 X116.918 Y104.508
G1 F1200 X117.207 Y104.797 E0.00956
G0 F9000 X116.982 Y104.89
G1 F1200 X116.693 Y104.602 E0.00954
G0 F9000 X116.469 Y104.696
G1 F1200 X116.757 Y104.984 E0.00952
G0 F9000 X116.533 Y105.078
G1 F1200 X116.244 Y104.789 E0.00956
G0 F9000 X116.019 Y104.883
G1 F1200 X116.308 Y105.171 E0.00954
G0 F9000 X116.083 Y105.264
G1 F1200 X115.795 Y104.977 E0.00951
G0 F9000 X115.57 Y105.07
G1 F1200 X115.859 Y105.358 E0.00954
G0 F9000 X115.634 Y105.452
G1 F1200 X115.346 Y105.164 E0.00952
G0 F9000 X115.121 Y105.257
G1 F1200 X115.409 Y105.545 E0.00952
G0 F9000 X115.185 Y105.639
G1 F1200 X114.897 Y105.351 E0.00952
G0 F9000 X114.672 Y105.445
G1 F1200 X114.96 Y105.732 E0.00951
G0 F9000 X114.735 Y105.826
G1 F1200 X114.448 Y105.538 E0.00951
G0 F9000 X114.223 Y105.632
G1 F1200 X114.511 Y105.92 E0.00952
G0 F9000 X114.286 Y106.013
G1 F1200 X113.999 Y105.725 E0.00951
G0 F9000 X113.774 Y105.819
G1 F1200 X114.061 Y106.107 E0.00951
G0 F9000 X113.837 Y106.201
G1 F1200 X113.55 Y105.913 E0.00951
G0 F9000 X113.325 Y106.006
G1 F1200 X113.612 Y106.294 E0.00951
G0 F9000 X113.388 Y106.387
G1 F1200 X113.1 Y106.099 E0.00952
G0 F9000 X112.876 Y106.194
G1 F1200 X113.163 Y106.481 E0.00949
G0 F9000 X112.939 Y106.575
G1 F1200 X112.651 Y106.287 E0.00952
G0 F9000 X112.427 Y106.381
G1 F1200 X112.714 Y106.668 E0.00949
G0 F9000 X112.49 Y106.762
G1 F1200 X112.202 Y106.474 E0.00952
G0 F9000 X111.977 Y106.568
G1 F1200 X112.265 Y106.855 E0.00951
G0 F9000 X112.04 Y106.949
G1 F1200 X111.753 Y106.662 E0.00949
G0 F9000 X111.528 Y106.755
G1 F1200 X111.815 Y107.042 E0.00949
G0 F9000 X111.591 Y107.136
G1 F1200 X111.304 Y106.849 E0.00949
G0 F9000 X111.079 Y106.942
G1 F1200 X111.366 Y107.229 E0.00949
G0 F9000 X111.141 Y107.323
G1 F1200 X110.854 Y107.036 E0.00949
G0 F9000 X110.63 Y107.13
G1 F1200 X110.917 Y107.417 E0.00949
G0 F9000 X110.692 Y107.51
G1 F1200 X110.405 Y107.223 E0.00949
G0 F9000 X110.181 Y107.317
G1 F1200 X110.467 Y107.603 E0.00946
G0 F9000 X110.243 Y107.698
G1 F1200 X109.956 Y107.41 E0.00951
G0 F9000 X109.731 Y107.504
G1 F1200 X110.018 Y107.791 E0.00949
G0 F9000 X109.793 Y107.884
G1 F1200 X109.507 Y107.598 E0.00946
G0 F9000 X109.282 Y107.691
G1 F1200 X109.569 Y107.978 E0.00949
G0 F9000 X109.344 Y108.072
G1 F1200 X109.057 Y107.784 E0.00951
G0 F9000 X108.833 Y107.879
G1 F1200 X109.12 Y108.165 E0.00948
G0 F9000 X108.895 Y108.259
G1 F1200 X108.608 Y107.972 E0.00949
G0 F9000 X108.384 Y108.066
G1 F1200 X108.67 Y108.352 E0.00946
G0 F9000 X108.446 Y108.446
G1 F1200 X108.159 Y108.159 E0.00949
G0 F9000 X107.934 Y108.253
G1 F1200 X108.221 Y108.54 E0.00949
G0 F9000 X107.997 Y108.633
G1 F1200 X107.71 Y108.347 E0.00948
G0 F9000 X107.485 Y108.44
G1 F1200 X107.772 Y108.726 E0.00948
G0 F9000 X107.547 Y108.82
G1 F1200 X107.261 Y108.534 E0.00946
G0 F9000 X107.036 Y108.627
G1 F1200 X107.323 Y108.914 E0.00949
G0 F9000 X107.098 Y109.007
G1 F1200 X106.812 Y108.721 E0.00946
G0 F9000 X106.587 Y108.815
G1 F1200 X106.873 Y109.1 E0.00944
G0 F9000 X106.649 Y109.194
G1 F1200 X106.363 Y108.908 E0.00946
G0 F9000 X106.138 Y109.001
G1 F1200 X106.424 Y109.288 E0.00948
G0 F9000 X106.199 Y109.381
G1 F1200 X105.913 Y109.095 E0.00946
G0 F9000 X105.689 Y109.189
G1 F1200 X105.975 Y109.475 E0.00946
G0 F9000 X105.75 Y109.569
G1 F1200 X105.464 Y109.283 E0.00946
G0 F9000 X105.24 Y109.376
G1 F1200 X105.525 Y109.662 E0.00944
G0 F9000 X105.301 Y109.756
G1 F1200 X105.015 Y109.47 E0.00946
G0 F9000 X104.791 Y109.564
G1 F1200 X105.076 Y109.849 E0.00943
G0 F9000 X104.851 Y109.943
G1 F1200 X104.566 Y109.657 E0.00944
G0 F9000 X104.342 Y109.751
G1 F1200 X104.627 Y110.037 E0.00944
G0 F9000 X104.402 Y110.13
G1 F1200 X104.117 Y109.844 E0.00944
G0 F9000 X103.892 Y109.938
G1 F1200 X104.178 Y110.223 E0.00944
G0 F9000 X103.953 Y110.317
G1 F1200 X103.668 Y110.032 E0.00943
G1 F2100 E-2
G1 F2400 Z0.85
G0 F9000 X108.47 Y97.969 Z0.85
G1 F2400 Z0.25
G1 F2100 E2
G1 F1200 X107.77 Y97.27 E0.02313
G0 F9000 X107.379 Y97.514
G1 F1200 X106.679 Y96.815 E0.02313
G0 F9000 X106.288 Y97.06
G1 F1200 X105.588 Y96.36 E0.02315
G0 F9000 X105.196 Y96.605
G1 F1200 X104.497 Y95.906 E0.02312
G0 F9000 X104.105 Y96.15
G1 F1200 X103.407 Y95.452 E0.02308
G0 F9000 X103.014 Y95.696
G1 F1200 X102.316 Y94.997 E0.0231
G0 F9000 X101.923 Y95.241
G1 F1200 X101.225 Y94.543 E0.02308
G0 F9000 X100.832 Y94.786
G1 F1200 X100.134 Y94.088 E0.02308
G0 F9000 X99.741 Y94.332
G1 F1200 X99.043 Y93.633 E0.0231
G0 F9000 X98.918 Y93.827
G1 F1200 X99.937 Y94.21 E0.04139
G0 F9000 X100.679 Y94.315
G1 F1200 X101.377 Y95.013 E0.02308
G0 F9000 X101.77 Y94.769
G1 F1200 X102.468 Y95.468 E0.0231
G0 F9000 X102.861 Y95.224
G1 F1200 X103.56 Y95.923 E0.02312
G0 F9000 X103.952 Y95.679
G1 F1200 X104.651 Y96.377 E0.0231
G0 F9000 X105.043 Y96.133
G1 F1200 X105.742 Y96.832 E0.02312
G0 F9000 X106.134 Y96.588
G1 F1200 X106.833 Y97.287 E0.02312
G0 F9000 X107.225 Y97.043
G1 F1200 X107.924 Y97.741 E0.0231
G0 F9000 X108.316 Y97.497
G1 F1200 X109.015 Y98.196 E0.02312
G0 F9000 X109.407 Y97.951
G1 F1200 X110.106 Y98.651 E0.02313
G0 F9000 X110.498 Y98.406
G1 F1200 X111.197 Y99.105 E0.02312
G0 F9000 X111.589 Y98.861
G1 F1200 X112.288 Y99.56 E0.02312
G0 F9000 X112.68 Y99.315
G1 F1200 X113.379 Y100.015 E0.02313
G0 F9000 X113.771 Y99.77
G1 F1200 X114.47 Y100.469 E0.02312
G0 F9000 X114.862 Y100.225
G1 F1200 X115.561 Y100.924 E0.02312
G0 F9000 X115.952 Y100.679
G1 F1200 X116.652 Y101.379 E0.02315
G0 F9000 X117.394 Y101.484
G1 F1200 X118.409 Y101.863 E0.04141
G0 F9000 X118.292 Y102.064
G1 F1200 X117.589 Y101.361 E0.02325
G0 F9000 X117.198 Y101.607
G1 F1200 X116.498 Y100.906 E0.02317
G0 F9000 X116.107 Y101.152
G1 F1200 X115.407 Y100.452 E0.02315
G0 F9000 X115.016 Y100.697
G1 F1200 X114.316 Y99.997 E0.02315
G0 F9000 X113.925 Y100.242
G1 F1200 X113.225 Y99.542 E0.02315
G0 F9000 X112.834 Y99.788
G1 F1200 X112.134 Y99.088 E0.02315
G0 F9000 X111.743 Y99.333
G1 F1200 X111.044 Y98.634 E0.02312
G0 F9000 X110.652 Y98.878
G1 F1200 X109.952 Y98.179 E0.02313
G0 F9000 X109.561 Y98.424
G1 F1200 X108.861 Y97.724 E0.02315
G1 F2100 E-2
G1 F2400 Z0.85
G0 F9000 X86.259 Y116.676 Z0.85
;TYPE:WALL-INNER
G1 F2400 Z0.25
G1 F2100 E2
G1 F1200 X86.259 Y116.678 E0.0001
G1 X86.259 Y117.029 E0.01722
G1 X86.584 Y116.894 E0.01008
G1 X96.134 Y112.916 E0.50753
G1 X96.716 Y113.158 E0.03092
G1 X97.237 Y113.375 E0.02769
G1 X96.716 Y113.592 E0.0149
G1 X85.733 Y118.169 E0.58373
G1 X85.408 Y118.304 E0.01726
G1 X85.408 Y117.953 E0.01006
G1 X85.408 Y117.951 E0.0001
G1 X85.408 Y88.049 E1.46695
G1 X85.408 Y88.047 E0.0001
G1 X85.408 Y87.696 E0.01722
G1 X85.733 Y87.831 E0.01008
G1 X93.259 Y90.968 E0.40001
G1 X93.259 Y91.534 E0.02777
G1 X93.259 Y91.536 E0.0001
G1 X93.259 Y91.887 E0.01722
G1 X92.934 Y91.752 E0.01008
G1 X87.955 Y89.677 E0.26463
G1 X86.584 Y89.106 E0.07286
G1 X86.259 Y88.971 E0.01726
G1 X86.259 Y89.322 E0.01006
G1 X86.259 Y89.324 E0.0001
G1 X86.259 Y116.676 E1.34185
G0 F9000 X86.731 Y116.321
;TYPE:WALL-OUTER
G1 F1200 X87.056 Y116.186 E0.01726
G1 X96.133 Y112.404 E0.48241
G1 X97.943 Y113.158 E0.09619
G1 X98.465 Y113.375 E0.02773
G1 X97.943 Y113.592 E0.01492
G1 X85.262 Y118.877 E0.67398
G1 X84.936 Y119.013 E0.01733
G1 X84.936 Y118.66 E0.01012
G1 X84.936 Y118.659 E0.00005
G1 X84.936 Y87.341 E1.53642
G1 X84.936 Y87.34 E0.00005
G1 X84.936 Y86.987 E0.01732
G1 X85.262 Y87.123 E0.01012
G1 X93.731 Y90.653 E0.45012
G1 X93.731 Y92.242 E0.07795
G1 X93.731 Y92.243 E0.00005
G1 X93.731 Y92.596 E0.01732
G1 X93.405 Y92.46 E0.01012
G1 X87.773 Y90.113 E0.29933
G1 X87.057 Y89.814 E0.03807
G1 X86.731 Y89.679 E0.01731
G1 X86.731 Y90.031 E0.01008
G1 X86.731 Y90.032 E0.00005
G1 X86.731 Y115.968 E1.27239
G1 X86.731 Y115.97 E0.0001
G1 X86.731 Y116.321 E0.01006
G0 F9000 X86.916 Y116.245
G0 X87.114 Y116.724
G1 F2100 E-2
G1 F2400 Z0.85
G0 F9000 X85.83 Y117.87 Z0.85
;TYPE:SKIN
G1 F2400 Z0.25
G1 F2100 E2
G1 F1200 X85.644 Y117.684 E0.0129
G0 F9000 X86.301 Y117.674
G1 F1200 X85.644 Y117.016 E0.04562
G0 F9000 X86.023 Y116.728
G1 F1200 X85.644 Y116.349 E0.02629
G0 F9000 X86.023 Y116.06
G1 F1200 X85.644 Y115.681 E0.02629
G0 F9000 X86.023 Y115.393
G1 F1200 X85.644 Y115.014 E0.02629
