;FLAVOR:RepRap
;TIME:297
;Filament used: 0.111868m
;Layer height: 0.16
;Generated with Cura_SteamEngine 4.0.0
T0
M82 ;absolute extrusion mode
M291 P"Tool Cartridge: X 250, Material: PLA, and Print Surface: PEI" R"This Calibration Uses" S3
M104 S225 T0 ; set extruder temp
M140 S45 ; set bed temp
M98 P/sys/X 250 Offset.g ; Call tool offset
M98 P/sys/probeauto.g ; conduct auto bed level compensation
G1 X-8 Y20 F6000 ; position over purge bucket
M190 S45 ; wait for bed temp
M109 S225 T0; wait for extruder temp
M83
M572 D0 S0.06 ; set material pressure advance value
T0
;M221 S95
M116 ; Wait for temperatures
M291 P"Once printing has begun, use Baby Stepping to adjust the nozzle offset until you have a good first layer" R"Tool Offset Calibration" S2
G1 E20 F80 ; Prime
M98 P/sys/wipe.g ; wipe
M83 ;relative extrusion mode
G1 F1500 E-1
;LAYER_COUNT:2
;LAYER:0
M107
M204 T1200
M566 X480 Y480
G0 F9000 X135.324 Y183.382 Z0.2
M204 P1200
;TYPE:SKIRT
G1 F1500 E1.00325
G1 F1200 X135.208 Y183.619 E0.00521
G1 X135.027 Y183.811 E0.00521
G1 X134.797 Y183.94 E0.00521
G1 X134.489 Y183.996 E0.00618
G1 X114.487 Y183.994 E0.395
G1 X114.412 Y183.991 E0.00148
G1 X111.537 Y183.745 E0.05698
G1 X105.945 Y183.508 E0.11053
G1 X100.334 Y183.588 E0.11082
G1 X94.564 Y183.993 E0.11423
G1 X94.503 Y183.995 E0.00121
G1 X74.51 Y183.995 E0.39483
G1 X74.448 Y183.993 E0.00123
G1 X68.739 Y183.588 E0.11303
G1 X63.148 Y183.508 E0.11042
G1 X54.538 Y183.995 E0.1703
G1 X54.489 Y183.996 E0.00097
G1 X34.509 Y183.987 E0.39457
G1 X34.248 Y183.947 E0.00521
G1 X34.011 Y183.831 E0.00521
G1 X33.819 Y183.65 E0.00521
G1 X33.69 Y183.42 E0.00521
G1 X33.634 Y183.112 E0.00618
G1 X33.635 Y23.139 E3.15918
G1 X33.675 Y22.878 E0.00521
G1 X33.79 Y22.641 E0.0052
G1 X33.972 Y22.449 E0.00522
G1 X34.202 Y22.32 E0.00521
G1 X34.551 Y22.265 E0.00698
G1 X41.805 Y22.604 E0.14341
G1 X47.418 Y22.524 E0.11086
G1 X54.17 Y22.008 E0.13373
G1 X54.237 Y22.005 E0.00132
G1 X74.751 Y22.005 E0.40511
G1 X74.824 Y22.008 E0.00144
G1 X77.474 Y22.23 E0.05252
G1 X83.071 Y22.467 E0.11063
G1 X88.684 Y22.386 E0.11086
G1 X94.19 Y22.006 E0.10899
G1 X94.25 Y22.004 E0.00119
G1 X114.052 Y21.995 E0.39105
G1 X114.113 Y21.997 E0.00121
G1 X117.475 Y22.23 E0.06655
G1 X123.071 Y22.467 E0.11061
G1 X128.684 Y22.386 E0.11086
G1 X134.19 Y22.006 E0.10899
G1 X134.25 Y22.004 E0.00119
G1 X174.491 Y22.004 E0.79469
G1 X174.752 Y22.044 E0.00521
G1 X174.989 Y22.159 E0.0052
G1 X175.181 Y22.341 E0.00522
G1 X175.31 Y22.571 E0.00521
G1 X175.366 Y22.879 E0.00618
G1 X175.365 Y72.865 E0.98713
G1 X175.325 Y73.126 E0.00521
G1 X175.21 Y73.363 E0.0052
G1 X175.038 Y73.547 E0.00497
G1 X170.036 Y77.562 E0.12667
G1 X165.884 Y81.324 E0.11065
G1 X163.887 Y83.294 E0.0554
G1 X160.069 Y87.395 E0.11065
G1 X156.487 Y91.707 E0.1107
G1 X153.147 Y96.227 E0.11099
G1 X150.081 Y100.908 E0.11051
G1 X147.275 Y105.77 E0.11086
G1 X144.752 Y110.775 E0.11069
G1 X142.518 Y115.912 E0.11062
G1 X142.517 Y115.919 E0.00014
G1 X140.577 Y121.172 E0.11059
G1 X138.935 Y126.536 E0.11078
G1 X137.59 Y132.017 E0.11145
G1 X137.045 Y134.742 E0.05488
G1 X136.18 Y140.259 E0.11028
G1 X135.624 Y145.856 E0.11107
G1 X135.385 Y151.451 E0.11059
G1 X135.364 Y183.122 E0.62545
G1 X135.347 Y183.228 E0.00212
G0 F300 X135.324 Y183.382
G1 F1500 E-1
G1 F2400 Z0.325
;MESH:X 250 Cal.stl
G0 F9000 X154.875 Y72.495 Z0.325
;TYPE:WALL-INNER
G1 F2400 Z0.2
G1 F1500 E1.00633
G1 F1200 X154.875 Y23.245 E0.9726
G1 X174.125 Y23.245 E0.38015
G1 X174.125 Y72.495 E0.9726
G1 X155.031 Y72.495 E0.37707
G0 F300 X154.875 Y72.495
G1 F1500 E-1
G1 F2400 Z0.325
G0 F9000 X114.635 Y182.995 Z0.325
;TYPE:WALL-OUTER
G1 F2400 Z0.2
G1 F1500 E1.00633
G1 F1200 X134.365 Y182.995 E0.38963
G1 X134.365 Y22.995 E3.15971
G1 X154.625 Y22.995 E0.4001
G1 X174.375 Y22.995 E0.39003
G1 X174.375 Y72.745 E0.98247
G1 X154.625 Y72.745 E0.39003
G1 X154.625 Y23.161 E0.9792
G0 F300 X154.625 Y23.005
G1 F1500 E-1
G1 F2400 Z0.325
G0 F9000 X114.625 Y183.005 Z0.325
G1 F2400 Z0.2
G1 F1500 E1.00633
G1 F1200 X114.625 Y23.005 E3.15971
G1 X94.375 Y23.005 E0.3999
G1 X94.375 Y183.005 E3.15971
G1 X74.625 Y183.005 E0.39003
G1 X74.625 Y23.005 E3.15971
G1 X54.375 Y23.005 E0.3999
G1 X54.375 Y183.005 E3.15971
G1 X34.625 Y183.005 E0.39003
G1 X34.625 Y23.401 E3.15189
G0 F300 X34.625 Y23.255
G0 X34.635 Y23.255
G1 F1500 E-1
G1 F2400 Z0.325
G0 F9000 X155.115 Y23.485 Z0.325
;TYPE:SKIN
G1 F2400 Z0.2
G1 F1500 E1.00633
G1 F1200 X173.885 Y23.485 E0.37067
G1 X173.885 Y72.255 E0.96312
G1 X155.115 Y72.255 E0.37067
G1 X155.115 Y23.641 E0.96004
G0 F300 X155.115 Y23.485
G1 F1500 E-1
G1 F2400 Z0.325
G0 F9000 X173.759 Y23.852 Z0.325
;TYPE:SKIN
G1 F2400 Z0.2
G1 F1500 E1.00633
G1 F1200 X173.516 Y23.61 E0.00677
G0 F9000 X173.163 Y23.61
G1 F1200 X173.759 Y24.206 E0.01665
G0 F9000 X173.759 Y24.559
G1 F1200 X172.809 Y23.61 E0.02652
G0 F9000 X172.456 Y23.61
G1 F1200 X173.759 Y24.913 E0.03639
G0 F9000 X173.759 Y25.267
G1 F1200 X172.102 Y23.61 E0.04628
G0 F9000 X171.749 Y23.61
G1 F1200 X173.759 Y25.62 E0.05614
G0 F9000 X173.759 Y25.974
G1 F1200 X171.395 Y23.61 E0.06602
G0 F9000 X171.042 Y23.61
G1 F1200 X173.759 Y26.327 E0.07588
G0 F9000 X173.759 Y26.681
G1 F1200 X170.688 Y23.61 E0.08577
G0 F9000 X170.334 Y23.61
G1 F1200 X173.759 Y27.034 E0.09564
G0 F9000 X173.759 Y27.388
G1 F1200 X169.981 Y23.61 E0.10551
G0 F9000 X169.627 Y23.61
G1 F1200 X173.759 Y27.741 E0.11539
G0 F9000 X173.759 Y28.095
G1 F1200 X169.274 Y23.61 E0.12526
G0 F9000 X168.92 Y23.61
G1 F1200 X173.759 Y28.449 E0.13514
G0 F9000 X173.759 Y28.802
G1 F1200 X168.567 Y23.61 E0.145
G0 F9000 X168.213 Y23.61
G1 F1200 X173.759 Y29.156 E0.15489
G0 F9000 X173.759 Y29.509
G1 F1200 X167.86 Y23.61 E0.16475
G0 F9000 X167.506 Y23.61
G1 F1200 X173.759 Y29.863 E0.17463
G0 F9000 X173.759 Y30.216
G1 F1200 X167.152 Y23.61 E0.18451
G0 F9000 X166.799 Y23.61
G1 F1200 X173.759 Y30.57 E0.19438
G0 F9000 X173.759 Y30.923
G1 F1200 X166.445 Y23.61 E0.20425
G0 F9000 X166.092 Y23.61
G1 F1200 X173.759 Y31.277 E0.21413
G0 F9000 X173.759 Y31.631
G1 F1200 X165.738 Y23.61 E0.22401
G0 F9000 X165.385 Y23.61
G1 F1200 X173.759 Y31.984 E0.23387
G0 F9000 X173.759 Y32.338
G1 F1200 X165.031 Y23.61 E0.24376
G0 F9000 X164.678 Y23.61
G1 F1200 X173.759 Y32.691 E0.25362
G0 F9000 X173.759 Y33.045
G1 F1200 X164.324 Y23.61 E0.2635
G0 F9000 X163.97 Y23.61
G1 F1200 X173.759 Y33.398 E0.27337
G0 F9000 X173.759 Y33.752
G1 F1200 X163.617 Y23.61 E0.28325
G0 F9000 X163.263 Y23.61
G1 F1200 X173.759 Y34.105 E0.29312
G0 F9000 X173.759 Y34.459
G1 F1200 X162.91 Y23.61 E0.30299
G0 F9000 X162.556 Y23.61
G1 F1200 X173.759 Y34.812 E0.31287
G0 F9000 X173.759 Y35.166
G1 F1200 X162.203 Y23.61 E0.32274
G0 F9000 X161.849 Y23.61
G1 F1200 X173.759 Y35.52 E0.33262
G0 F9000 X173.759 Y35.873
G1 F1200 X161.496 Y23.61 E0.34248
G0 F9000 X161.142 Y23.61
G1 F1200 X173.759 Y36.227 E0.35237
G0 F9000 X173.759 Y36.58
G1 F1200 X160.789 Y23.61 E0.36223
G0 F9000 X160.435 Y23.61
G1 F1200 X173.759 Y36.934 E0.37212
G0 F9000 X173.759 Y37.287
G1 F1200 X160.081 Y23.61 E0.38199
G0 F9000 X159.728 Y23.61
G1 F1200 X173.759 Y37.641 E0.39186
G0 F9000 X173.759 Y37.994
G1 F1200 X159.374 Y23.61 E0.40173
G0 F9000 X159.021 Y23.61
G1 F1200 X173.759 Y38.348 E0.41161
G0 F9000 X173.759 Y38.702
G1 F1200 X158.667 Y23.61 E0.42149
G0 F9000 X158.314 Y23.61
G1 F1200 X173.759 Y39.055 E0.43135
G0 F9000 X173.759 Y39.409
G1 F1200 X157.96 Y23.61 E0.44124
G0 F9000 X157.607 Y23.61
G1 F1200 X173.759 Y39.762 E0.4511
G0 F9000 X173.759 Y40.116
G1 F1200 X157.253 Y23.61 E0.46098
G0 F9000 X156.899 Y23.61
G1 F1200 X173.759 Y40.469 E0.47086
G0 F9000 X173.759 Y40.823
G1 F1200 X156.546 Y23.61 E0.48073
G0 F9000 X156.192 Y23.61
G1 F1200 X173.759 Y41.176 E0.4906
G0 F9000 X173.759 Y41.53
G1 F1200 X155.839 Y23.61 E0.50047
G0 F9000 X155.485 Y23.61
G1 F1200 X173.759 Y41.884 E0.51036
G0 F9000 X173.759 Y42.237
G1 F1200 X155.238 Y23.717 E0.51724
G0 F9000 X155.238 Y24.07
G1 F1200 X173.759 Y42.591 E0.51726
G0 F9000 X173.759 Y42.944
G1 F1200 X155.238 Y24.424 E0.51724
G0 F9000 X155.238 Y24.777
G1 F1200 X173.759 Y43.298 E0.51726
G0 F9000 X173.759 Y43.651
G1 F1200 X155.238 Y25.131 E0.51724
G0 F9000 X155.238 Y25.484
G1 F1200 X173.759 Y44.005 E0.51726
G0 F9000 X173.759 Y44.358
G1 F1200 X155.238 Y25.838 E0.51724
G0 F9000 X155.238 Y26.191
G1 F1200 X173.759 Y44.712 E0.51726
G0 F9000 X173.759 Y45.066
G1 F1200 X155.238 Y26.545 E0.51726
G0 F9000 X155.238 Y26.899
G1 F1200 X173.759 Y45.419 E0.51724
G0 F9000 X173.759 Y45.773
G1 F1200 X155.238 Y27.252 E0.51726
G0 F9000 X155.238 Y27.606
G1 F1200 X173.759 Y46.126 E0.51724
G0 F9000 X173.759 Y46.48
G1 F1200 X155.238 Y27.959 E0.51726
G0 F9000 X155.238 Y28.313
G1 F1200 X173.759 Y46.833 E0.51724
G0 F9000 X173.759 Y47.187
G1 F1200 X155.238 Y28.666 E0.51726
G0 F9000 X155.238 Y29.02
G1 F1200 X173.759 Y47.54 E0.51724
G0 F9000 X173.759 Y47.894
G1 F1200 X155.238 Y29.373 E0.51726
G0 F9000 X155.238 Y29.727
G1 F1200 X173.759 Y48.248 E0.51726
G0 F9000 X173.759 Y48.601
G1 F1200 X155.238 Y30.081 E0.51724
G0 F9000 X155.238 Y30.434
G1 F1200 X173.759 Y48.955 E0.51726
G0 F9000 X173.759 Y49.308
G1 F1200 X155.238 Y30.788 E0.51724
G0 F9000 X155.238 Y31.141
G1 F1200 X173.759 Y49.662 E0.51726
G0 F9000 X173.759 Y50.015
G1 F1200 X155.238 Y31.495 E0.51724
G0 F9000 X155.238 Y31.848
G1 F1200 X173.759 Y50.369 E0.51726
G0 F9000 X173.759 Y50.722
G1 F1200 X155.238 Y32.202 E0.51724
G0 F9000 X155.238 Y32.555
G1 F1200 X173.759 Y51.076 E0.51726
G0 F9000 X173.759 Y51.429
G1 F1200 X155.238 Y32.909 E0.51724
G0 F9000 X155.238 Y33.263
G1 F1200 X173.759 Y51.783 E0.51724
G0 F9000 X173.759 Y52.137
G1 F1200 X155.238 Y33.616 E0.51726
G0 F9000 X155.238 Y33.97
G1 F1200 X173.759 Y52.49 E0.51724
G0 F9000 X173.759 Y52.844
G1 F1200 X155.238 Y34.323 E0.51726
G0 F9000 X155.238 Y34.677
G1 F1200 X173.759 Y53.197 E0.51724
G0 F9000 X173.759 Y53.551
G1 F1200 X155.238 Y35.03 E0.51726
G0 F9000 X155.238 Y35.384
G1 F1200 X173.759 Y53.904 E0.51724
G0 F9000 X173.759 Y54.258
G1 F1200 X155.238 Y35.737 E0.51726
G0 F9000 X155.238 Y36.091
G1 F1200 X173.759 Y54.611 E0.51724
G0 F9000 X173.759 Y54.965
G1 F1200 X155.238 Y36.444 E0.51726
G0 F9000 X155.238 Y36.798
G1 F1200 X173.759 Y55.319 E0.51726
G0 F9000 X173.759 Y55.672
G1 F1200 X155.238 Y37.152 E0.51724
G0 F9000 X155.238 Y37.505
G1 F1200 X173.759 Y56.026 E0.51726
G0 F9000 X173.759 Y56.379
G1 F1200 X155.238 Y37.859 E0.51724
G0 F9000 X155.238 Y38.212
G1 F1200 X173.759 Y56.733 E0.51726
G0 F9000 X173.759 Y57.086
G1 F1200 X155.238 Y38.566 E0.51724
G0 F9000 X155.238 Y38.919
G1 F1200 X173.759 Y57.44 E0.51726
G0 F9000 X173.759 Y57.793
G1 F1200 X155.238 Y39.273 E0.51724
G0 F9000 X155.238 Y39.626
G1 F1200 X173.759 Y58.147 E0.51726
G0 F9000 X173.759 Y58.501
G1 F1200 X155.238 Y39.98 E0.51726
G0 F9000 X155.238 Y40.334
G1 F1200 X173.759 Y58.854 E0.51724
G0 F9000 X173.759 Y59.208
G1 F1200 X155.238 Y40.687 E0.51726
G0 F9000 X155.238 Y41.041
G1 F1200 X173.759 Y59.561 E0.51724
G0 F9000 X173.759 Y59.915
G1 F1200 X155.238 Y41.394 E0.51726
G0 F9000 X155.238 Y41.748
G1 F1200 X173.759 Y60.268 E0.51724
G0 F9000 X173.759 Y60.622
G1 F1200 X155.238 Y42.101 E0.51726
G0 F9000 X155.238 Y42.455
G1 F1200 X173.759 Y60.975 E0.51724
G0 F9000 X173.759 Y61.329
G1 F1200 X155.238 Y42.808 E0.51726
G0 F9000 X155.238 Y43.162
G1 F1200 X173.759 Y61.683 E0.51726
G0 F9000 X173.759 Y62.036
G1 F1200 X155.238 Y43.516 E0.51724
G0 F9000 X155.238 Y43.869
G1 F1200 X173.759 Y62.39 E0.51726
G0 F9000 X173.759 Y62.743
G1 F1200 X155.238 Y44.223 E0.51724
G0 F9000 X155.238 Y44.576
G1 F1200 X173.759 Y63.097 E0.51726
G0 F9000 X173.759 Y63.45
G1 F1200 X155.238 Y44.93 E0.51724
G0 F9000 X155.238 Y45.283
G1 F1200 X173.759 Y63.804 E0.51726
G0 F9000 X173.759 Y64.157
G1 F1200 X155.238 Y45.637 E0.51724
G0 F9000 X155.238 Y45.99
G1 F1200 X173.759 Y64.511 E0.51726
G0 F9000 X173.759 Y64.865
G1 F1200 X155.238 Y46.344 E0.51726
G0 F9000 X155.238 Y46.698
G1 F1200 X173.759 Y65.218 E0.51724
G0 F9000 X173.759 Y65.572
G1 F1200 X155.238 Y47.051 E0.51726
G0 F9000 X155.238 Y47.405
G1 F1200 X173.759 Y65.925 E0.51724
G0 F9000 X173.759 Y66.279
G1 F1200 X155.238 Y47.758 E0.51726
G0 F9000 X155.238 Y48.112
G1 F1200 X173.759 Y66.632 E0.51724
G0 F9000 X173.759 Y66.986
G1 F1200 X155.238 Y48.465 E0.51726
G0 F9000 X155.238 Y48.819
G1 F1200 X173.759 Y67.339 E0.51724
G0 F9000 X173.759 Y67.693
G1 F1200 X155.238 Y49.172 E0.51726
G0 F9000 X155.238 Y49.526
G1 F1200 X173.759 Y68.047 E0.51726
G0 F9000 X173.759 Y68.4
G1 F1200 X155.238 Y49.88 E0.51724
G0 F9000 X155.238 Y50.233
G1 F1200 X173.759 Y68.754 E0.51726
G0 F9000 X173.759 Y69.107
G1 F1200 X155.238 Y50.587 E0.51724
G0 F9000 X155.238 Y50.94
G1 F1200 X173.759 Y69.461 E0.51726
G0 F9000 X173.759 Y69.814
G1 F1200 X155.238 Y51.294 E0.51724
G0 F9000 X155.238 Y51.647
G1 F1200 X173.759 Y70.168 E0.51726
G0 F9000 X173.759 Y70.521
G1 F1200 X155.238 Y52.001 E0.51724
G0 F9000 X155.238 Y52.354
G1 F1200 X173.759 Y70.875 E0.51726
G0 F9000 X173.759 Y71.228
G1 F1200 X155.238 Y52.708 E0.51724
G0 F9000 X155.238 Y53.061
G1 F1200 X173.759 Y71.582 E0.51726
G0 F9000 X173.759 Y71.936
G1 F1200 X155.238 Y53.415 E0.51726
G0 F9000 X155.238 Y53.769
G1 F1200 X173.599 Y72.129 E0.51278
G0 F9000 X173.246 Y72.129
G1 F1200 X155.238 Y54.122 E0.50292
G0 F9000 X155.238 Y54.476
G1 F1200 X172.892 Y72.129 E0.49303
G0 F9000 X172.539 Y72.129
G1 F1200 X155.238 Y54.829 E0.48317
G0 F9000 X155.238 Y55.183
G1 F1200 X172.185 Y72.129 E0.47328
G0 F9000 X171.831 Y72.129
G1 F1200 X155.238 Y55.536 E0.46341
G0 F9000 X155.238 Y55.89
G1 F1200 X171.478 Y72.129 E0.45354
G0 F9000 X171.124 Y72.129
G1 F1200 X155.238 Y56.243 E0.44367
G0 F9000 X155.238 Y56.597
G1 F1200 X170.771 Y72.129 E0.43379
G0 F9000 X170.417 Y72.129
G1 F1200 X155.238 Y56.951 E0.42391
G0 F9000 X155.238 Y57.304
G1 F1200 X170.064 Y72.129 E0.41405
G0 F9000 X169.71 Y72.129
G1 F1200 X155.238 Y57.658 E0.40416
G0 F9000 X155.238 Y58.011
G1 F1200 X169.357 Y72.129 E0.3943
G0 F9000 X169.003 Y72.129
G1 F1200 X155.238 Y58.365 E0.38442
G0 F9000 X155.238 Y58.718
G1 F1200 X168.649 Y72.129 E0.37454
G0 F9000 X168.296 Y72.129
G1 F1200 X155.238 Y59.072 E0.36467
G0 F9000 X155.238 Y59.425
G1 F1200 X167.942 Y72.129 E0.3548
G0 F9000 X167.589 Y72.129
G1 F1200 X155.238 Y59.779 E0.34493
G0 F9000 X155.238 Y60.133
G1 F1200 X167.235 Y72.129 E0.33504
G0 F9000 X166.882 Y72.129
G1 F1200 X155.238 Y60.486 E0.32518
G0 F9000 X155.238 Y60.84
G1 F1200 X166.528 Y72.129 E0.3153
G0 F9000 X166.175 Y72.129
G1 F1200 X155.238 Y61.193 E0.30544
G0 F9000 X155.238 Y61.547
G1 F1200 X165.821 Y72.129 E0.29555
G0 F9000 X165.467 Y72.129
G1 F1200 X155.238 Y61.9 E0.28568
G0 F9000 X155.238 Y62.254
G1 F1200 X165.114 Y72.129 E0.2758
G0 F9000 X164.76 Y72.129
G1 F1200 X155.238 Y62.607 E0.26593
G0 F9000 X155.238 Y62.961
G1 F1200 X164.407 Y72.129 E0.25606
G0 F9000 X164.053 Y72.129
G1 F1200 X155.238 Y63.315 E0.24617
G0 F9000 X155.238 Y63.668
G1 F1200 X163.7 Y72.129 E0.23631
G0 F9000 X163.346 Y72.129
G1 F1200 X155.238 Y64.022 E0.22643
G0 F9000 X155.238 Y64.375
G1 F1200 X162.993 Y72.129 E0.21657
G0 F9000 X162.639 Y72.129
G1 F1200 X155.238 Y64.729 E0.20668
G0 F9000 X155.238 Y65.082
G1 F1200 X162.285 Y72.129 E0.19681
G0 F9000 X161.932 Y72.129
G1 F1200 X155.238 Y65.436 E0.18694
G0 F9000 X155.238 Y65.789
G1 F1200 X161.578 Y72.129 E0.17706
G0 F9000 X161.225 Y72.129
G1 F1200 X155.238 Y66.143 E0.16719
G0 F9000 X155.238 Y66.497
G1 F1200 X160.871 Y72.129 E0.15731
G0 F9000 X160.518 Y72.129
G1 F1200 X155.238 Y66.85 E0.14745
G0 F9000 X155.238 Y67.204
G1 F1200 X160.164 Y72.129 E0.13756
G0 F9000 X159.811 Y72.129
G1 F1200 X155.238 Y67.557 E0.1277
G0 F9000 X155.238 Y67.911
G1 F1200 X159.457 Y72.129 E0.11782
G0 F9000 X159.103 Y72.129
G1 F1200 X155.238 Y68.264 E0.10794
G0 F9000 X155.238 Y68.618
G1 F1200 X158.75 Y72.129 E0.09807
G0 F9000 X158.396 Y72.129
G1 F1200 X155.238 Y68.971 E0.0882
G0 F9000 X155.238 Y69.325
G1 F1200 X158.043 Y72.129 E0.07832
G0 F9000 X157.689 Y72.129
G1 F1200 X155.238 Y69.679 E0.06844
G0 F9000 X155.238 Y70.032
G1 F1200 X157.336 Y72.129 E0.05858
G0 F9000 X156.982 Y72.129
G1 F1200 X155.238 Y70.386 E0.04869
G0 F9000 X155.238 Y70.739
G1 F1200 X156.629 Y72.129 E0.03883
G0 F9000 X156.275 Y72.129
G1 F1200 X155.238 Y71.093 E0.02895
G0 F9000 X155.238 Y71.446
G1 F1200 X155.921 Y72.129 E0.01907
G0 F9000 X155.568 Y72.129
G1 F1200 X155.238 Y71.8 E0.0092
