;FLAVOR:RepRap
;TIME:273
;Filament used: 0.170963m
;Layer height: 0.2
;Generated with Cura_SteamEngine 4.0.0
T0
M82 ;absolute extrusion mode
M291 P"Tool Cartridge: X 400, Material: PLA, and Print Surface: PEI" R"This Calibration Uses" S3
M104 S225 T0 ; set extruder temp
M140 S45 ; set bed temp
M98 P/sys/X 400 Offset.g ; Call tool offset
M98 P/sys/probeauto.g ; conduct auto bed level compensation
G1 X-8 Y20 F6000 ; position over purge bucket
M190 S45 ; wait for bed temp
M109 S225 T0; wait for extruder temp
M83
M572 D0 S0.06 ; set material pressure advance value
T0
;M221 S95
M116 ; Wait for temperatures
M291 P"Once printing has begun, use Baby Stepping to adjust the nozzle offset until you have a good first layer" R"Tool Offset Calibration" S2
G1 E20 F80 ; Prime
M98 P/sys/wipe.g ; wipe
M83 ;relative extrusion mode
G1 F1500 E-1
;LAYER_COUNT:2
;LAYER:0
M107
M204 T1200
M566 X480 Y480
G0 F9000 X136.008 Y183.567 Z0.25
M204 P1200
;TYPE:SKIRT
G1 F1500 E1.0133
G1 F1200 X135.89 Y183.9 E0.01458
G1 X135.701 Y184.197 E0.01453
G1 X135.449 Y184.444 E0.01456
G1 X135.149 Y184.629 E0.01455
G1 X134.814 Y184.741 E0.01458
G1 X134.489 Y184.775 E0.01349
G1 X114.487 Y184.773 E0.82556
G1 X114.354 Y184.767 E0.00549
G1 X111.52 Y184.524 E0.1174
G1 X105.926 Y184.288 E0.23109
G1 X100.356 Y184.366 E0.22992
G1 X94.612 Y184.77 E0.23766
G1 X94.503 Y184.774 E0.0045
G1 X74.51 Y184.774 E0.82519
G1 X74.4 Y184.77 E0.00454
G1 X68.716 Y184.366 E0.23519
G1 X63.163 Y184.288 E0.22922
G1 X54.577 Y184.773 E0.35494
G1 X54.488 Y184.775 E0.00367
G1 X34.508 Y184.766 E0.82465
G1 X34.158 Y184.726 E0.01454
G1 X33.826 Y184.608 E0.01454
G1 X33.528 Y184.419 E0.01456
G1 X33.281 Y184.167 E0.01456
G1 X33.097 Y183.867 E0.01453
G1 X32.984 Y183.533 E0.01455
G1 X32.95 Y183.207 E0.01353
G1 X32.951 Y23.234 E6.60269
G1 X32.991 Y22.884 E0.01454
G1 X33.108 Y22.551 E0.01457
G1 X33.298 Y22.254 E0.01455
G1 X33.549 Y22.006 E0.01456
G1 X33.849 Y21.822 E0.01453
G1 X34.184 Y21.71 E0.01458
G1 X34.589 Y21.677 E0.01677
G1 X37.923 Y21.845 E0.13778
G1 X43.506 Y21.925 E0.23045
G1 X49.085 Y21.69 E0.23047
G1 X53.912 Y21.232 E0.20012
G1 X54.058 Y21.225 E0.00603
G1 X74.242 Y21.216 E0.83307
G1 X74.348 Y21.22 E0.00438
G1 X77.543 Y21.436 E0.13217
G1 X83.153 Y21.67 E0.23175
G1 X88.731 Y21.587 E0.23025
G1 X93.954 Y21.23 E0.21608
G1 X94.059 Y21.226 E0.00434
G1 X114.242 Y21.216 E0.83303
G1 X114.34 Y21.219 E0.00405
G1 X120.358 Y21.593 E0.24886
G1 X125.929 Y21.668 E0.22996
G1 X131.518 Y21.428 E0.23089
G1 X133.936 Y21.23 E0.10013
G1 X134.063 Y21.225 E0.00525
G1 X174.491 Y21.225 E1.66862
G1 X174.841 Y21.265 E0.01454
G1 X175.174 Y21.382 E0.01457
G1 X175.471 Y21.572 E0.01455
G1 X175.719 Y21.823 E0.01456
G1 X175.903 Y22.123 E0.01453
G1 X176.015 Y22.458 E0.01458
G1 X176.05 Y22.784 E0.01353
G1 X176.049 Y72.77 E2.06311
G1 X176.009 Y73.12 E0.01454
G1 X175.892 Y73.453 E0.01457
G1 X175.702 Y73.75 E0.01455
G1 X175.466 Y73.986 E0.01378
G1 X170.474 Y77.992 E0.26418
G1 X166.352 Y81.727 E0.22958
G1 X164.383 Y83.67 E0.11417
G1 X160.578 Y87.757 E0.23047
G1 X157.023 Y92.037 E0.22964
G1 X153.712 Y96.518 E0.22996
G1 X150.661 Y101.176 E0.22982
G1 X147.882 Y105.991 E0.22946
G1 X145.376 Y110.963 E0.22981
G1 X143.159 Y116.06 E0.22941
G1 X143.159 Y116.061 E0.00004
G1 X141.223 Y121.304 E0.23068
G1 X139.594 Y126.626 E0.22972
G1 X138.261 Y132.058 E0.23085
G1 X137.72 Y134.759 E0.11369
G1 X136.856 Y140.266 E0.23007
G1 X136.308 Y145.788 E0.22903
G1 X136.069 Y151.385 E0.23122
G1 X136.048 Y183.217 E1.31383
G1 X136.042 Y183.263 E0.00191
G0 F300 X136.008 Y183.567
G1 F1500 E-1
G1 F2400 Z0.45
;MESH:X 400 Cal.stl
G0 F9000 X155.081 Y72.194 Z0.45
;TYPE:WALL-INNER
G1 F2400 Z0.25
G1 F1500 E1.02593
G1 F1200 X155.081 Y23.356 E2.01573
G1 X173.919 Y23.356 E0.77751
G1 X173.919 Y72.194 E2.01573
G1 X155.387 Y72.194 E0.76489
G0 F300 X155.081 Y72.194
G1 F1500 E-1
G1 F2400 Z0.45
G0 F9000 X114.764 Y182.961 Z0.45
;TYPE:WALL-OUTER
G1 F2400 Z0.25
G1 F1500 E1.02593
G1 F1200 X134.236 Y182.961 E0.71524
G1 X134.236 Y23.039 E5.8742
G1 X134.236 Y22.961 E0.00287
G1 X134.314 Y22.961 E0.00179
G1 X154.686 Y22.961 E0.7483
G1 X174.314 Y22.961 E0.72097
G1 X174.314 Y72.589 E1.82292
G1 X154.686 Y72.589 E0.72097
G1 X154.686 Y23.039 E1.82005
G1 X134.314 Y23.039 E0.1569
G1 X134.314 Y182.961 E1.23169
G1 X134.314 Y183.039 E0.00179
G1 X134.236 Y183.039 E0.00179
G1 X114.764 Y183.039 E0.14997
G1 X114.686 Y183.039 E0.00287
G1 X114.686 Y182.961 E0.00179
G1 X114.686 Y23.039 E5.8742
G1 X94.314 Y23.039 E0.7483
G1 X94.314 Y182.961 E5.8742
G1 X94.314 Y183.039 E0.00287
G1 X94.236 Y183.039 E0.00179
G1 X74.764 Y183.039 E0.71524
G1 X74.686 Y183.039 E0.00287
G1 X74.686 Y182.961 E0.00179
G1 X74.686 Y23.039 E5.8742
G1 X54.314 Y23.039 E0.7483
G1 X54.314 Y182.961 E5.8742
G1 X54.314 Y183.039 E0.00287
G1 X54.236 Y183.039 E0.00179
G1 X34.764 Y183.039 E0.71524
G1 X34.686 Y183.039 E0.00287
G1 X34.686 Y182.961 E0.00179
G1 X34.686 Y23.411 E5.86054
G1 X34.764 Y23.411 E0.00287
G1 X34.764 Y182.961 E1.22882
G1 X54.236 Y182.961 E0.14997
G1 X54.236 Y23.039 E1.23169
G1 X54.236 Y22.961 E0.00179
G1 X54.314 Y22.961 E0.00179
G1 X74.686 Y22.961 E0.1569
G1 X74.764 Y22.961 E0.00179
G1 X74.764 Y23.039 E0.00179
G1 X74.764 Y182.961 E1.23169
G1 X94.236 Y182.961 E0.14997
G1 X94.236 Y23.039 E1.23169
G1 X94.236 Y22.961 E0.00179
G1 X94.314 Y22.961 E0.00179
G1 X114.686 Y22.961 E0.1569
G1 X114.764 Y22.961 E0.00179
G1 X114.764 Y23.039 E0.00179
G1 X114.764 Y182.961 E1.23169
G0 F9000 X115.564 Y182.961
G1 F1500 E-1
G1 F2400 Z0.45
G0 F9000 X155.489 Y71.786 Z0.45
;TYPE:SKIN
G1 F2400 Z0.25
G1 F1500 E1.0133
G1 F1200 X155.489 Y23.764 E1.98205
G1 X173.511 Y23.764 E0.74384
G1 X173.511 Y71.786 E1.98205
G1 X155.795 Y71.786 E0.73121
G0 F300 X155.489 Y71.786
G0 F9000 X155.864 Y71.576
;TYPE:SKIN
G1 F1500 E0.01263
G1 F1200 X155.697 Y71.41 E0.0093
G0 F9000 X155.697 Y70.844
G1 F1200 X156.429 Y71.576 E0.04089
G0 F9000 X156.995 Y71.576
G1 F1200 X155.697 Y70.278 E0.0725
G0 F9000 X155.697 Y69.712
G1 F1200 X157.561 Y71.576 E0.10412
G0 F9000 X158.126 Y71.576
G1 F1200 X155.697 Y69.147 E0.13568
G0 F9000 X155.697 Y68.581
G1 F1200 X158.692 Y71.576 E0.16729
G0 F9000 X159.258 Y71.576
G1 F1200 X155.697 Y68.015 E0.1989
G0 F9000 X155.697 Y67.45
G1 F1200 X159.823 Y71.576 E0.23046
G0 F9000 X160.389 Y71.576
G1 F1200 X155.697 Y66.884 E0.26208
G0 F9000 X155.697 Y66.318
G1 F1200 X160.955 Y71.576 E0.29369
G0 F9000 X161.52 Y71.576
G1 F1200 X155.697 Y65.753 E0.32525
G0 F9000 X155.697 Y65.187
G1 F1200 X162.086 Y71.576 E0.35687
G0 F9000 X162.652 Y71.576
G1 F1200 X155.697 Y64.621 E0.38848
G0 F9000 X155.697 Y64.056
G1 F1200 X163.217 Y71.576 E0.42004
G0 F9000 X163.783 Y71.576
G1 F1200 X155.697 Y63.49 E0.45165
G0 F9000 X155.697 Y62.924
G1 F1200 X164.349 Y71.576 E0.48327
G0 F9000 X164.914 Y71.576
G1 F1200 X155.697 Y62.359 E0.51483
G0 F9000 X155.697 Y61.793
G1 F1200 X165.48 Y71.576 E0.54644
G0 F9000 X166.046 Y71.576
G1 F1200 X155.697 Y61.227 E0.57806
G0 F9000 X155.697 Y60.661
G1 F1200 X166.612 Y71.576 E0.60967
G0 F9000 X167.177 Y71.576
G1 F1200 X155.697 Y60.096 E0.64123
G0 F9000 X155.697 Y59.53
G1 F1200 X167.743 Y71.576 E0.67285
G0 F9000 X168.309 Y71.576
G1 F1200 X155.697 Y58.964 E0.70446
G0 F9000 X155.697 Y58.399
G1 F1200 X168.874 Y71.576 E0.73602
G0 F9000 X169.44 Y71.576
G1 F1200 X155.697 Y57.833 E0.76763
G0 F9000 X155.697 Y57.267
G1 F1200 X170.006 Y71.576 E0.79925
G0 F9000 X170.571 Y71.576
G1 F1200 X155.697 Y56.702 E0.83081
G0 F9000 X155.697 Y56.136
G1 F1200 X171.137 Y71.576 E0.86242
G0 F9000 X171.703 Y71.576
G1 F1200 X155.697 Y55.57 E0.89404
G0 F9000 X155.697 Y55.005
G1 F1200 X172.268 Y71.576 E0.9256
G0 F9000 X172.834 Y71.576
G1 F1200 X155.697 Y54.439 E0.95721
G0 F9000 X155.697 Y53.873
G1 F1200 X173.301 Y71.477 E0.9833
G0 F9000 X173.301 Y70.912
G1 F1200 X155.697 Y53.308 E0.9833
G0 F9000 X155.697 Y52.742
G1 F1200 X173.301 Y70.346 E0.9833
G0 F9000 X173.301 Y69.78
G1 F1200 X155.697 Y52.176 E0.9833
G0 F9000 X155.697 Y51.611
G1 F1200 X173.301 Y69.215 E0.9833
G0 F9000 X173.301 Y68.649
G1 F1200 X155.697 Y51.045 E0.9833
G0 F9000 X155.697 Y50.479
G1 F1200 X173.301 Y68.083 E0.9833
G0 F9000 X173.301 Y67.518
G1 F1200 X155.697 Y49.913 E0.98332
G0 F9000 X155.697 Y49.348
G1 F1200 X173.301 Y66.952 E0.9833
G0 F9000 X173.301 Y66.386
G1 F1200 X155.697 Y48.782 E0.9833
G0 F9000 X155.697 Y48.216
G1 F1200 X173.301 Y65.821 E0.98332
G0 F9000 X173.301 Y65.255
G1 F1200 X155.697 Y47.651 E0.9833
G0 F9000 X155.697 Y47.085
G1 F1200 X173.301 Y64.689 E0.9833
G0 F9000 X173.301 Y64.123
G1 F1200 X155.697 Y46.519 E0.9833
G0 F9000 X155.697 Y45.954
G1 F1200 X173.301 Y63.558 E0.9833
G0 F9000 X173.301 Y62.992
G1 F1200 X155.697 Y45.388 E0.9833
G0 F9000 X155.697 Y44.822
G1 F1200 X173.301 Y62.426 E0.9833
G0 F9000 X173.301 Y61.861
G1 F1200 X155.697 Y44.257 E0.9833
G0 F9000 X155.697 Y43.691
G1 F1200 X173.301 Y61.295 E0.9833
G0 F9000 X173.301 Y60.729
G1 F1200 X155.697 Y43.125 E0.9833
G0 F9000 X155.697 Y42.56
G1 F1200 X173.301 Y60.164 E0.9833
G0 F9000 X173.301 Y59.598
G1 F1200 X155.697 Y41.994 E0.9833
G0 F9000 X155.697 Y41.428
G1 F1200 X173.301 Y59.032 E0.9833
G0 F9000 X173.301 Y58.467
G1 F1200 X155.697 Y40.862 E0.98332
G0 F9000 X155.697 Y40.297
G1 F1200 X173.301 Y57.901 E0.9833
G0 F9000 X173.301 Y57.335
G1 F1200 X155.697 Y39.731 E0.9833
G0 F9000 X155.697 Y39.165
G1 F1200 X173.301 Y56.77 E0.98332
G0 F9000 X173.301 Y56.204
G1 F1200 X155.697 Y38.6 E0.9833
G0 F9000 X155.697 Y38.034
G1 F1200 X173.301 Y55.638 E0.9833
G0 F9000 X173.301 Y55.073
G1 F1200 X155.697 Y37.468 E0.98332
G0 F9000 X155.697 Y36.903
G1 F1200 X173.301 Y54.507 E0.9833
G0 F9000 X173.301 Y53.941
G1 F1200 X155.697 Y36.337 E0.9833
G0 F9000 X155.697 Y35.771
G1 F1200 X173.301 Y53.375 E0.9833
G0 F9000 X173.301 Y52.81
G1 F1200 X155.697 Y35.206 E0.9833
G0 F9000 X155.697 Y34.64
G1 F1200 X173.301 Y52.244 E0.9833
G0 F9000 X173.301 Y51.678
G1 F1200 X155.697 Y34.074 E0.9833
G0 F9000 X155.697 Y33.509
G1 F1200 X173.301 Y51.113 E0.9833
G0 F9000 X173.301 Y50.547
G1 F1200 X155.697 Y32.943 E0.9833
G0 F9000 X155.697 Y32.377
G1 F1200 X173.301 Y49.981 E0.9833
G0 F9000 X173.301 Y49.416
G1 F1200 X155.697 Y31.812 E0.9833
G0 F9000 X155.697 Y31.246
G1 F1200 X173.301 Y48.85 E0.9833
G0 F9000 X173.301 Y48.284
G1 F1200 X155.697 Y30.68 E0.9833
G0 F9000 X155.697 Y30.114
G1 F1200 X173.301 Y47.719 E0.98332
G0 F9000 X173.301 Y47.153
G1 F1200 X155.697 Y29.549 E0.9833
G0 F9000 X155.697 Y28.983
G1 F1200 X173.301 Y46.587 E0.9833
G0 F9000 X173.301 Y46.022
G1 F1200 X155.697 Y28.417 E0.98332
G0 F9000 X155.697 Y27.852
G1 F1200 X173.301 Y45.456 E0.9833
G0 F9000 X173.301 Y44.89
G1 F1200 X155.697 Y27.286 E0.9833
G0 F9000 X155.697 Y26.72
G1 F1200 X173.301 Y44.324 E0.9833
G0 F9000 X173.301 Y43.759
G1 F1200 X155.697 Y26.155 E0.9833
G0 F9000 X155.697 Y25.589
G1 F1200 X173.301 Y43.193 E0.9833
G0 F9000 X173.301 Y42.627
G1 F1200 X155.697 Y25.023 E0.9833
G0 F9000 X155.697 Y24.458
G1 F1200 X173.301 Y42.062 E0.9833
G0 F9000 X173.301 Y41.496
G1 F1200 X155.777 Y23.973 E0.9788
G0 F9000 X156.343 Y23.973
G1 F1200 X173.301 Y40.93 E0.94718
G0 F9000 X173.301 Y40.365
G1 F1200 X156.909 Y23.973 E0.9156
G0 F9000 X157.474 Y23.973
G1 F1200 X173.301 Y39.799 E0.88401
G0 F9000 X173.301 Y39.233
G1 F1200 X158.04 Y23.973 E0.8524
G0 F9000 X158.606 Y23.973
G1 F1200 X173.301 Y38.668 E0.82081
G0 F9000 X173.301 Y38.102
G1 F1200 X159.171 Y23.973 E0.78922
G0 F9000 X159.737 Y23.973
G1 F1200 X173.301 Y37.536 E0.75761
G0 F9000 X173.301 Y36.971
G1 F1200 X160.303 Y23.973 E0.72602
G0 F9000 X160.868 Y23.973
G1 F1200 X173.301 Y36.405 E0.69443
G0 F9000 X173.301 Y35.839
G1 F1200 X161.434 Y23.973 E0.66282
G0 F9000 X162 Y23.973
G1 F1200 X173.301 Y35.274 E0.63123
G0 F9000 X173.301 Y34.708
G1 F1200 X162.565 Y23.973 E0.59965
G0 F9000 X163.131 Y23.973
G1 F1200 X173.301 Y34.142 E0.56803
G0 F9000 X173.301 Y33.576
G1 F1200 X163.697 Y23.973 E0.53642
G0 F9000 X164.263 Y23.973
G1 F1200 X173.301 Y33.011 E0.50483
G0 F9000 X173.301 Y32.445
G1 F1200 X164.828 Y23.973 E0.47324
G0 F9000 X165.394 Y23.973
G1 F1200 X173.301 Y31.879 E0.44163
G0 F9000 X173.301 Y31.314
G1 F1200 X165.96 Y23.973 E0.41004
G0 F9000 X166.525 Y23.973
G1 F1200 X173.301 Y30.748 E0.37845
G0 F9000 X173.301 Y30.182
G1 F1200 X167.091 Y23.973 E0.34684
G0 F9000 X167.657 Y23.973
G1 F1200 X173.301 Y29.617 E0.31525
G0 F9000 X173.301 Y29.051
G1 F1200 X168.222 Y23.973 E0.28367
G0 F9000 X168.788 Y23.973
G1 F1200 X173.301 Y28.485 E0.25205
G0 F9000 X173.301 Y27.92
G1 F1200 X169.354 Y23.973 E0.22047
G0 F9000 X169.919 Y23.973
G1 F1200 X173.301 Y27.354 E0.18888
G0 F9000 X173.301 Y26.788
G1 F1200 X170.485 Y23.973 E0.15726
G0 F9000 X171.051 Y23.973
G1 F1200 X173.301 Y26.223 E0.12568
G0 F9000 X173.301 Y25.657
G1 F1200 X171.616 Y23.973 E0.09409
G0 F9000 X172.182 Y23.973
G1 F1200 X173.301 Y25.091 E0.06248
G0 F9000 X173.301 Y24.525
G1 F1200 X172.748 Y23.973 E0.03086
;TIME_ELAPSED:273.268049
G1 F1500 E-1
M140 S0
M204 P1300
M204 T1300
M82 ;absolute extrusion mode
G1 E-2 F2000 ; retract filament
M107 ; turn off fan
G28 Z ; home z
G1 X200 Y200 F3000 ; move to cooling position
M140 S50 ; turn off bed
M104 S0 ; turn off extruder
G90 ; absolute positioning
M291 P"Please wait. Cooling to part removal temperature of 50C. Open door to speed up cooldown." R"Heatbed Cooling" S1 T0
M190 R50 ; Wait to reach removal temp
M300 S250 P1000 ; Play notification beep
M291 P"You may now remove your part. CAUTION! Print Surface may still be HOT!" R"Print Finished." S2
M140 S0; Turn off bed
M83 ;relative extrusion mode
M291 P"Write down the babystepping value that will be displayed after pressing ""OK."" R"Tool Offset Calibration" S2
M290                                                                          ; Report babystepping vlaue
M290 R0 S0                                                                    ; Clear babystepping
;End of Gcode
;SETTING_3 {"global_quality": "[general]\\nversion = 4\\nname = Fast #2\\ndefini
;SETTING_3 tion = hydra_research_nautilus\\n\\n[metadata]\\ntype = quality_chang
;SETTING_3 es\\nsetting_version = 6\\nquality_type = draft\\n\\n[values]\\n\\n",
;SETTING_3  "extruder_quality": ["[general]\\nversion = 4\\nname = Fast #2\\ndef
;SETTING_3 inition = hydra_research_nautilus\\n\\n[metadata]\\ntype = quality_ch
;SETTING_3 anges\\nsetting_version = 6\\nposition = 0\\nquality_type = draft\\n\
;SETTING_3 \n[values]\\nxy_offset_layer_0 = 0\\n\\n"]}
