;FLAVOR:RepRap
;TIME:325
;Filament used: 0.257179m
;Layer height: 0.25
;Generated with Cura_SteamEngine 4.0.0
T0
M82 ;absolute extrusion mode
M291 P"Tool Cartridge: X 400, Material: PLA, and Print Surface: PEI" R"This Calibration Uses" S3
M104 S210 T0 ; set extruder temp
M140 S45 ; set bed temp
M98 P/sys/Z-offset X 400.g ; Call tool offset
M98 P/sys/probeauto.g ; conduct auto bed level compensation
G1 X-8 Y20 F6000 ; position over purge bucket
M190 S45 ; wait for bed temp
M109 S210 T0; wait for extruder temp
M83
M572 D0 S0.047 ; set material pressure advance value
T0
;M221 S95
M116 ; Wait for temperatures
M291 P"Once printing has begun, use Baby Stepping to adjust the nozzle offset until you have a good first layer" R"Tool Offset Calibration" S2
G1 E20 F80 ; Prime
M98 P/sys/wipe.g ; wipe
M83 ;relative extrusion mode
G1 F4200 E-2.5
;LAYER_COUNT:1
;LAYER:0
M107
M204 T1500
M566 X600 Y600
G0 F9000 X204.649 Y203.922 Z0.25
M204 P1500
;TYPE:SKIRT
G1 F4200 E2.5
G1 F1200 X204.312 Y204.033 E0.0166
G1 X204.035 Y204.065 E0.01304
G1 X203.714 Y204.074 E0.01502
G1 X203.67 Y204.075 E0.00206
G1 X5.687 Y204.075 E9.26007
G1 X4.989 Y204.066 E0.03265
G1 X4.637 Y204.021 E0.0166
G1 X4.304 Y203.9 E0.01657
G1 X4.007 Y203.706 E0.01659
G1 X3.761 Y203.452 E0.01654
G1 X3.578 Y203.148 E0.0166
G1 X3.467 Y202.812 E0.01655
G1 X3.435 Y202.534 E0.01309
G1 X3.426 Y202.201 E0.01558
G1 X3.425 Y202.158 E0.00201
G1 X3.425 Y4.153 E9.2611
G1 X3.434 Y3.488 E0.03111
G1 X3.479 Y3.136 E0.0166
G1 X3.601 Y2.803 E0.01659
G1 X3.794 Y2.506 E0.01657
G1 X4.049 Y2.26 E0.01657
G1 X4.353 Y2.077 E0.0166
G1 X4.689 Y1.967 E0.01654
G1 X4.965 Y1.935 E0.013
G1 X5.286 Y1.926 E0.01502
G1 X5.33 Y1.925 E0.00206
G1 X203.316 Y1.925 E9.26021
G1 X204.014 Y1.935 E0.03265
G1 X204.365 Y1.98 E0.01655
G1 X204.698 Y2.102 E0.01659
G1 X204.995 Y2.296 E0.01659
G1 X205.241 Y2.551 E0.01657
G1 X205.423 Y2.855 E0.01657
G1 X205.533 Y3.192 E0.01658
G1 X205.565 Y3.466 E0.0129
G1 X205.574 Y3.786 E0.01497
G1 X205.575 Y3.83 E0.00206
G1 X205.575 Y201.783 E9.25867
G1 X205.566 Y202.51 E0.03401
G1 X205.522 Y202.862 E0.01659
G1 X205.4 Y203.195 E0.01659
G1 X205.207 Y203.492 E0.01657
G1 X204.952 Y203.739 E0.0166
G1 X204.649 Y203.922 E0.01656
G1 F4200 E-2.5
G1 F2400 Z0.85
;MESH:Nautilus Offset Calibration 0.4.stl
G0 F9000 X24.375 Y22.875 Z0.85
;TYPE:WALL-INNER
G1 F2400 Z0.25
G1 F4200 E2.5
G1 F1200 X5.625 Y22.875 E0.87698
G1 X5.625 Y4.125 E0.87698
G1 X24.375 Y4.125 E0.87698
G1 X24.375 Y22.875 E0.87698
G1 F4200 E-2.5
G1 F2400 Z0.85
G0 F9000 X184.625 Y22.875 Z0.85
G1 F2400 Z0.25
G1 F4200 E2.5
G1 F1200 X184.625 Y4.125 E0.87698
G1 X203.375 Y4.125 E0.87698
G1 X203.375 Y22.875 E0.87698
G1 X184.625 Y22.875 E0.87698
G1 F4200 E-2.5
G1 F2400 Z0.85
G0 F9000 X184.625 Y183.125 Z0.85
G1 F2400 Z0.25
G1 F4200 E2.5
G1 F1200 X203.375 Y183.125 E0.87698
G1 X203.375 Y201.875 E0.87698
G1 X184.625 Y201.875 E0.87698
G1 X184.625 Y183.125 E0.87698
G1 F4200 E-2.5
G1 F2400 Z0.85
G0 F9000 X24.375 Y183.125 Z0.85
G1 F2400 Z0.25
G1 F4200 E2.5
G1 F1200 X24.375 Y201.875 E0.87698
G1 X5.625 Y201.875 E0.87698
G1 X5.625 Y183.125 E0.87698
G1 X24.375 Y183.125 E0.87698
G1 F4200 E-2.5
G1 F2400 Z0.85
G0 F9000 X184.2 Y201.9 Z0.85
;TYPE:WALL-OUTER
G1 F2400 Z0.25
G1 F4200 E2.5
G1 F1200 X184.2 Y182.7 E0.79824
G1 X203.4 Y182.7 E0.79824
G1 X203.4 Y23.3 E6.62708
G1 X184.2 Y23.3 E0.79824
G1 X184.2 Y4.1 E0.79824
G1 X24.8 Y4.1 E6.62708
G1 X24.8 Y23.3 E0.79824
G1 X5.6 Y23.3 E0.79824
G1 X5.6 Y182.7 E6.62708
G1 X24.8 Y182.7 E0.79824
G1 X24.8 Y201.9 E0.79824
G1 X184.2 Y201.9 E6.62708
G0 F9000 X184.2 Y201.7
G0 X184.64 Y201.7
G0 X184.2 Y202.3
G1 F1200 X24.8 Y202.3 E6.62708
G1 X5.2 Y202.3 E0.81487
G1 X5.2 Y182.7 E0.81487
G1 X5.2 Y23.3 E6.62708
G1 X5.2 Y3.7 E0.81487
G1 X24.8 Y3.7 E0.81487
G1 X184.2 Y3.7 E6.62708
G1 X203.8 Y3.7 E0.81487
G1 X203.8 Y23.3 E0.81487
G1 X203.8 Y182.7 E6.62708
G1 X203.8 Y202.3 E0.81487
G1 X184.2 Y202.3 E0.81487
G0 F9000 X184 Y202.3
G0 X185.065 Y201.435
;TYPE:SKIN
G1 F1200 X185.065 Y183.565 E0.83582
G1 X202.935 Y183.565 E0.83582
G1 X202.935 Y201.435 E0.83582
G1 X185.065 Y201.435 E0.83582
G0 F9000 X185.37 Y201.209
;TYPE:SKIN
G1 F1200 X185.288 Y201.128 E0.00479
G0 F9000 X185.288 Y200.562
G1 F1200 X185.935 Y201.209 E0.03804
G0 F9000 X186.501 Y201.209
G1 F1200 X185.288 Y199.996 E0.07132
G0 F9000 X185.288 Y199.43
G1 F1200 X187.067 Y201.209 E0.1046
G0 F9000 X187.632 Y201.209
G1 F1200 X185.288 Y198.865 E0.13782
G0 F9000 X185.288 Y198.299
G1 F1200 X188.198 Y201.209 E0.1711
G0 F9000 X188.764 Y201.209
G1 F1200 X185.288 Y197.733 E0.20438
G0 F9000 X185.288 Y197.168
G1 F1200 X189.329 Y201.209 E0.2376
G0 F9000 X189.895 Y201.209
G1 F1200 X185.288 Y196.602 E0.27087
G0 F9000 X185.288 Y196.036
G1 F1200 X190.461 Y201.209 E0.30415
G0 F9000 X191.027 Y201.209
G1 F1200 X185.288 Y195.471 E0.3374
G0 F9000 X185.288 Y194.905
G1 F1200 X191.592 Y201.209 E0.37065
G0 F9000 X192.158 Y201.209
G1 F1200 X185.288 Y194.339 E0.40393
G0 F9000 X185.288 Y193.774
G1 F1200 X192.724 Y201.209 E0.43718
G0 F9000 X193.289 Y201.209
G1 F1200 X185.288 Y193.208 E0.47043
G0 F9000 X185.288 Y192.642
G1 F1200 X193.855 Y201.209 E0.50371
G0 F9000 X194.421 Y201.209
G1 F1200 X185.288 Y192.077 E0.53696
G0 F9000 X185.288 Y191.511
G1 F1200 X194.986 Y201.209 E0.57021
G0 F9000 X195.552 Y201.209
G1 F1200 X185.288 Y190.945 E0.60348
G0 F9000 X185.288 Y190.38
G1 F1200 X196.118 Y201.209 E0.63673
G0 F9000 X196.683 Y201.209
G1 F1200 X185.288 Y189.814 E0.66998
G0 F9000 X185.288 Y189.248
G1 F1200 X197.249 Y201.209 E0.70326
G0 F9000 X197.815 Y201.209
G1 F1200 X185.288 Y188.682 E0.73654
G0 F9000 X185.288 Y188.117
G1 F1200 X198.38 Y201.209 E0.76976
G0 F9000 X198.946 Y201.209
G1 F1200 X185.288 Y187.551 E0.80304
G0 F9000 X185.288 Y186.985
G1 F1200 X199.512 Y201.209 E0.83632
G0 F9000 X200.077 Y201.209
G1 F1200 X185.288 Y186.42 E0.86954
G0 F9000 X185.288 Y185.854
G1 F1200 X200.643 Y201.209 E0.90282
G0 F9000 X201.209 Y201.209
G1 F1200 X185.288 Y185.288 E0.93609
G0 F9000 X185.288 Y184.723
G1 F1200 X201.775 Y201.209 E0.96934
G0 F9000 X202.34 Y201.209
G1 F1200 X185.288 Y184.157 E1.00259
G0 F9000 X185.486 Y183.789
G1 F1200 X202.709 Y201.012 E1.01265
G0 F9000 X202.709 Y200.446
G1 F1200 X186.052 Y183.789 E0.97937
G0 F9000 X186.618 Y183.789
G1 F1200 X202.709 Y199.88 E0.94609
G0 F9000 X202.709 Y199.315
G1 F1200 X187.183 Y183.789 E0.91287
G0 F9000 X187.749 Y183.789
G1 F1200 X202.709 Y198.749 E0.87959
G0 F9000 X202.709 Y198.183
G1 F1200 X188.315 Y183.789 E0.84631
G0 F9000 X188.88 Y183.789
G1 F1200 X202.709 Y197.617 E0.81306
G0 F9000 X202.709 Y197.052
G1 F1200 X189.446 Y183.789 E0.77981
G0 F9000 X190.012 Y183.789
G1 F1200 X202.709 Y196.486 E0.74653
G0 F9000 X202.709 Y195.92
G1 F1200 X190.578 Y183.789 E0.71326
G0 F9000 X191.143 Y183.789
G1 F1200 X202.709 Y195.355 E0.68004
G0 F9000 X202.709 Y194.789
G1 F1200 X191.709 Y183.789 E0.64676
G0 F9000 X192.275 Y183.789
G1 F1200 X202.709 Y194.223 E0.61348
G0 F9000 X202.709 Y193.658
G1 F1200 X192.84 Y183.789 E0.58026
G0 F9000 X193.406 Y183.789
G1 F1200 X202.709 Y193.092 E0.54698
G0 F9000 X202.709 Y192.526
G1 F1200 X193.972 Y183.789 E0.5137
G0 F9000 X194.537 Y183.789
G1 F1200 X202.709 Y191.961 E0.48048
G0 F9000 X202.709 Y191.395
G1 F1200 X195.103 Y183.789 E0.4472
G0 F9000 X195.669 Y183.789
G1 F1200 X202.709 Y190.829 E0.41393
G0 F9000 X202.709 Y190.264
G1 F1200 X196.234 Y183.789 E0.38071
G0 F9000 X196.8 Y183.789
G1 F1200 X202.709 Y189.698 E0.34743
G0 F9000 X202.709 Y189.132
G1 F1200 X197.366 Y183.789 E0.31415
G0 F9000 X197.931 Y183.789
G1 F1200 X202.709 Y188.566 E0.2809
G0 F9000 X202.709 Y188.001
G1 F1200 X198.497 Y183.789 E0.24765
G0 F9000 X199.063 Y183.789
G1 F1200 X202.709 Y187.435 E0.21437
G0 F9000 X202.709 Y186.869
G1 F1200 X199.628 Y183.789 E0.18112
G0 F9000 X200.194 Y183.789
G1 F1200 X202.709 Y186.304 E0.14787
G0 F9000 X202.709 Y185.738
G1 F1200 X200.76 Y183.789 E0.11459
G0 F9000 X201.326 Y183.789
G1 F1200 X202.709 Y185.172 E0.08132
G0 F9000 X202.709 Y184.607
G1 F1200 X201.891 Y183.789 E0.0481
G0 F9000 X202.457 Y183.789
G1 F1200 X202.709 Y184.041 E0.01482
G1 F4200 E-2.5
G1 F2400 Z0.85
G0 F9000 X23.935 Y183.565 Z0.85
;TYPE:SKIN
G1 F2400 Z0.25
G1 F4200 E2.5
G1 F1200 X23.935 Y201.435 E0.83582
G1 X6.065 Y201.435 E0.83582
G1 X6.065 Y183.565 E0.83582
G1 X23.935 Y183.565 E0.83582
G0 F9000 X23.709 Y184.364
;TYPE:SKIN
G1 F1200 X23.134 Y183.789 E0.03381
G0 F9000 X22.568 Y183.789
G1 F1200 X23.709 Y184.93 E0.06709
G0 F9000 X23.709 Y185.496
G1 F1200 X22.003 Y183.789 E0.10034
G0 F9000 X21.437 Y183.789
G1 F1200 X23.709 Y186.061 E0.13358
G0 F9000 X23.709 Y186.627
G1 F1200 X20.871 Y183.789 E0.16686
G0 F9000 X20.305 Y183.789
G1 F1200 X23.709 Y187.193 E0.20014
G0 F9000 X23.709 Y187.758
G1 F1200 X19.74 Y183.789 E0.23336
G0 F9000 X19.174 Y183.789
G1 F1200 X23.709 Y188.324 E0.26664
G0 F9000 X23.709 Y188.89
G1 F1200 X18.608 Y183.789 E0.29992
G0 F9000 X18.043 Y183.789
G1 F1200 X23.709 Y189.455 E0.33314
G0 F9000 X23.709 Y190.021
G1 F1200 X17.477 Y183.789 E0.36642
G0 F9000 X16.911 Y183.789
G1 F1200 X23.709 Y190.587 E0.3997
G0 F9000 X23.709 Y191.152
G1 F1200 X16.346 Y183.789 E0.43292
G0 F9000 X15.78 Y183.789
G1 F1200 X23.709 Y191.718 E0.46619
G0 F9000 X23.709 Y192.284
G1 F1200 X15.214 Y183.789 E0.49947
G0 F9000 X14.649 Y183.789
G1 F1200 X23.709 Y192.849 E0.53269
G0 F9000 X23.709 Y193.415
G1 F1200 X14.083 Y183.789 E0.56597
G0 F9000 X13.517 Y183.789
G1 F1200 X23.709 Y193.981 E0.59925
G0 F9000 X23.709 Y194.546
G1 F1200 X12.952 Y183.789 E0.63247
G0 F9000 X12.386 Y183.789
G1 F1200 X23.709 Y195.112 E0.66575
G0 F9000 X23.709 Y195.678
G1 F1200 X11.82 Y183.789 E0.69903
G0 F9000 X11.255 Y183.789
G1 F1200 X23.709 Y196.244 E0.73228
G0 F9000 X23.709 Y196.809
G1 F1200 X10.689 Y183.789 E0.76553
G0 F9000 X10.123 Y183.789
G1 F1200 X23.709 Y197.375 E0.7988
G0 F9000 X23.709 Y197.941
G1 F1200 X9.557 Y183.789 E0.83208
G0 F9000 X8.992 Y183.789
G1 F1200 X23.709 Y198.506 E0.8653
G0 F9000 X23.709 Y199.072
G1 F1200 X8.426 Y183.789 E0.89858
G0 F9000 X7.86 Y183.789
G1 F1200 X23.709 Y199.638 E0.93186
G0 F9000 X23.709 Y200.203
G1 F1200 X7.295 Y183.789 E0.96508
G0 F9000 X6.729 Y183.789
G1 F1200 X23.709 Y200.769 E0.99836
G0 F9000 X23.584 Y201.209
G1 F1200 X6.289 Y183.914 E1.01688
G0 F9000 X6.289 Y184.48
G1 F1200 X23.018 Y201.209 E0.9836
G0 F9000 X22.452 Y201.209
G1 F1200 X6.289 Y185.046 E0.95032
G0 F9000 X6.289 Y185.611
G1 F1200 X21.887 Y201.209 E0.9171
G0 F9000 X21.321 Y201.209
G1 F1200 X6.289 Y186.177 E0.88382
G0 F9000 X6.289 Y186.743
G1 F1200 X20.755 Y201.209 E0.85055
G0 F9000 X20.19 Y201.209
G1 F1200 X6.289 Y187.309 E0.8173
G0 F9000 X6.289 Y187.874
G1 F1200 X19.624 Y201.209 E0.78405
G0 F9000 X19.058 Y201.209
G1 F1200 X6.289 Y188.44 E0.75077
G0 F9000 X6.289 Y189.006
G1 F1200 X18.492 Y201.209 E0.71749
G0 F9000 X17.927 Y201.209
G1 F1200 X6.289 Y189.571 E0.68427
G0 F9000 X6.289 Y190.137
G1 F1200 X17.361 Y201.209 E0.65099
G0 F9000 X16.795 Y201.209
G1 F1200 X6.289 Y190.703 E0.61771
G0 F9000 X6.289 Y191.268
G1 F1200 X16.23 Y201.209 E0.58449
G0 F9000 X15.664 Y201.209
G1 F1200 X6.289 Y191.834 E0.55121
G0 F9000 X6.289 Y192.4
G1 F1200 X15.098 Y201.209 E0.51794
G0 F9000 X14.533 Y201.209
G1 F1200 X6.289 Y192.965 E0.48472
G0 F9000 X6.289 Y193.531
G1 F1200 X13.967 Y201.209 E0.45144
G0 F9000 X13.401 Y201.209
G1 F1200 X6.289 Y194.097 E0.41816
G0 F9000 X6.289 Y194.662
G1 F1200 X12.836 Y201.209 E0.38494
G0 F9000 X12.27 Y201.209
G1 F1200 X6.289 Y195.228 E0.35166
G0 F9000 X6.289 Y195.794
G1 F1200 X11.704 Y201.209 E0.31838
G0 F9000 X11.139 Y201.209
G1 F1200 X6.289 Y196.36 E0.28513
G0 F9000 X6.289 Y196.925
G1 F1200 X10.573 Y201.209 E0.25188
G0 F9000 X10.007 Y201.209
G1 F1200 X6.289 Y197.491 E0.2186
G0 F9000 X6.289 Y198.057
G1 F1200 X9.441 Y201.209 E0.18533
G0 F9000 X8.876 Y201.209
G1 F1200 X6.289 Y198.622 E0.15211
G0 F9000 X6.289 Y199.188
G1 F1200 X8.31 Y201.209 E0.11883
G0 F9000 X7.744 Y201.209
G1 F1200 X6.289 Y199.754 E0.08555
G0 F9000 X6.289 Y200.319
G1 F1200 X7.179 Y201.209 E0.05233
G0 F9000 X6.613 Y201.209
G1 F1200 X6.289 Y200.885 E0.01905
G1 F4200 E-2.5
G1 F2400 Z0.85
G0 F9000 X6.065 Y22.435 Z0.85
;TYPE:SKIN
G1 F2400 Z0.25
G1 F4200 E2.5
G1 F1200 X6.065 Y4.565 E0.83582
G1 X23.935 Y4.565 E0.83582
G1 X23.935 Y22.435 E0.83582
G1 X6.065 Y22.435 E0.83582
G0 F9000 X6.37 Y22.209
;TYPE:SKIN
G1 F1200 X6.289 Y22.128 E0.00476
G0 F9000 X6.289 Y21.562
G1 F1200 X6.936 Y22.209 E0.03804
G0 F9000 X7.501 Y22.209
G1 F1200 X6.289 Y20.996 E0.07129
G0 F9000 X6.289 Y20.431
G1 F1200 X8.067 Y22.209 E0.10454
G0 F9000 X8.633 Y22.209
G1 F1200 X6.289 Y19.865 E0.13782
G0 F9000 X6.289 Y19.299
G1 F1200 X9.198 Y22.209 E0.17107
G0 F9000 X9.764 Y22.209
G1 F1200 X6.289 Y18.734 E0.20432
G0 F9000 X6.289 Y18.168
G1 F1200 X10.33 Y22.209 E0.2376
G0 F9000 X10.895 Y22.209
G1 F1200 X6.289 Y17.602 E0.27084
G0 F9000 X6.289 Y17.037
G1 F1200 X11.461 Y22.209 E0.30409
G0 F9000 X12.027 Y22.209
G1 F1200 X6.289 Y16.471 E0.33737
G0 F9000 X6.289 Y15.905
G1 F1200 X12.592 Y22.209 E0.37062
G0 F9000 X13.158 Y22.209
G1 F1200 X6.289 Y15.339 E0.4039
G0 F9000 X6.289 Y14.774
G1 F1200 X13.724 Y22.209 E0.43715
G0 F9000 X14.289 Y22.209
G1 F1200 X6.289 Y14.208 E0.4704
G0 F9000 X6.289 Y13.642
G1 F1200 X14.855 Y22.209 E0.50368
G0 F9000 X15.421 Y22.209
G1 F1200 X6.289 Y13.077 E0.53693
G0 F9000 X6.289 Y12.511
G1 F1200 X15.986 Y22.209 E0.57018
G0 F9000 X16.552 Y22.209
G1 F1200 X6.289 Y11.945 E0.60345
G0 F9000 X6.289 Y11.38
G1 F1200 X17.118 Y22.209 E0.6367
G0 F9000 X17.684 Y22.209
G1 F1200 X6.289 Y10.814 E0.66998
G0 F9000 X6.289 Y10.248
G1 F1200 X18.249 Y22.209 E0.70323
G0 F9000 X18.815 Y22.209
G1 F1200 X6.289 Y9.683 E0.73648
G0 F9000 X6.289 Y9.117
G1 F1200 X19.381 Y22.209 E0.76976
G0 F9000 X19.946 Y22.209
G1 F1200 X6.289 Y8.551 E0.80301
G0 F9000 X6.289 Y7.986
G1 F1200 X20.512 Y22.209 E0.83626
G0 F9000 X21.078 Y22.209
G1 F1200 X6.289 Y7.42 E0.86954
G0 F9000 X6.289 Y6.854
G1 F1200 X21.643 Y22.209 E0.90279
G0 F9000 X22.209 Y22.209
G1 F1200 X6.289 Y6.289 E0.93603
G0 F9000 X6.289 Y5.723
G1 F1200 X22.775 Y22.209 E0.96931
G0 F9000 X23.34 Y22.209
G1 F1200 X6.289 Y5.157 E1.00256
G0 F9000 X6.486 Y4.789
G1 F1200 X23.709 Y22.012 E1.01265
G0 F9000 X23.709 Y21.446
G1 F1200 X7.052 Y4.789 E0.97937
G0 F9000 X7.618 Y4.789
G1 F1200 X23.709 Y20.88 E0.94609
G0 F9000 X23.709 Y20.315
G1 F1200 X8.184 Y4.789 E0.91284
G0 F9000 X8.749 Y4.789
G1 F1200 X23.709 Y19.749 E0.87959
G0 F9000 X23.709 Y19.183
G1 F1200 X9.315 Y4.789 E0.84631
G0 F9000 X9.881 Y4.789
G1 F1200 X23.709 Y18.618 E0.81306
G0 F9000 X23.709 Y18.052
G1 F1200 X10.446 Y4.789 E0.77981
G0 F9000 X11.012 Y4.789
G1 F1200 X23.709 Y17.486 E0.74653
G0 F9000 X23.709 Y16.921
G1 F1200 X11.578 Y4.789 E0.71329
G0 F9000 X12.143 Y4.789
G1 F1200 X23.709 Y16.355 E0.68004
G0 F9000 X23.709 Y15.789
G1 F1200 X12.709 Y4.789 E0.64676
G0 F9000 X13.275 Y4.789
G1 F1200 X23.709 Y15.224 E0.61351
G0 F9000 X23.709 Y14.658
G1 F1200 X13.84 Y4.789 E0.58026
G0 F9000 X14.406 Y4.789
G1 F1200 X23.709 Y14.092 E0.54698
G0 F9000 X23.709 Y13.526
G1 F1200 X14.972 Y4.789 E0.5137
G0 F9000 X15.537 Y4.789
G1 F1200 X23.709 Y12.961 E0.48048
G0 F9000 X23.709 Y12.395
G1 F1200 X16.103 Y4.789 E0.4472
G0 F9000 X16.669 Y4.789
G1 F1200 X23.709 Y11.829 E0.41393
G0 F9000 X23.709 Y11.264
G1 F1200 X17.235 Y4.789 E0.38068
G0 F9000 X17.8 Y4.789
G1 F1200 X23.709 Y10.698 E0.34743
G0 F9000 X23.709 Y10.132
G1 F1200 X18.366 Y4.789 E0.31415
G0 F9000 X18.932 Y4.789
G1 F1200 X23.709 Y9.567 E0.2809
G0 F9000 X23.709 Y9.001
G1 F1200 X19.497 Y4.789 E0.24765
G0 F9000 X20.063 Y4.789
G1 F1200 X23.709 Y8.435 E0.21437
G0 F9000 X23.709 Y7.87
G1 F1200 X20.629 Y4.789 E0.18112
G0 F9000 X21.194 Y4.789
G1 F1200 X23.709 Y7.304 E0.14787
G0 F9000 X23.709 Y6.738
G1 F1200 X21.76 Y4.789 E0.11459
G0 F9000 X22.326 Y4.789
