;FLAVOR:RepRap
;TIME:221
;Filament used: 0.278908m
;Layer height: 0.3
;Generated with Cura_SteamEngine 4.0.0
T0
M82 ;absolute extrusion mode
M291 P"Tool Cartridge: X 800, Material: PLA, and Print Surface: PEI" R"This Calibration Uses" S3
M104 S210 T0 ; set extruder temp
M140 S45 ; set bed temp
M98 P/sys/Z-offset X 800.g ; Call tool offset
M98 P/sys/probeauto.g ; conduct auto bed level compensation
G1 X-8 Y20 F6000 ; position over purge bucket
M190 S45 ; wait for bed temp
M109 S210 T0; wait for extruder temp
M83
M572 D0 S0.033 ; set material pressure advance value
T0
;M221 S95
M116 ; Wait for temperatures
M291 P"Once printing has begun, use Baby Stepping to adjust the nozzle offset until you have a good first layer" R"Tool Offset Calibration" S2
G1 E20 F80 ; Prime
M98 P/sys/wipe.g ; wipe
M83 ;relative extrusion mode
G1 F4200 E-3
;LAYER_COUNT:1
;LAYER:0
M107
M204 T1500
M566 X600 Y600
G0 F9000 X205.34 Y205.338 Z0.3
M204 P1500
;TYPE:SKIRT
G1 F4200 E3
G1 F1200 X204.871 Y205.516 E0.05631
G1 X204.38 Y205.617 E0.05627
G1 X204.079 Y205.64 E0.03389
G1 X203.758 Y205.649 E0.03605
G1 X203.67 Y205.65 E0.00988
G1 X5.666 Y205.65 E22.22653
G1 X4.968 Y205.641 E0.07836
G1 X4.469 Y205.594 E0.05626
G1 X3.983 Y205.469 E0.05633
G1 X3.523 Y205.269 E0.05631
G1 X3.101 Y204.998 E0.0563
G1 X2.728 Y204.663 E0.05628
G1 X2.412 Y204.273 E0.05635
G1 X2.162 Y203.839 E0.05622
G1 X1.984 Y203.37 E0.05631
G1 X1.883 Y202.878 E0.05638
G1 X1.86 Y202.576 E0.034
G1 X1.851 Y202.243 E0.03739
G1 X1.85 Y202.158 E0.00954
G1 X1.85 Y4.131 E22.22912
G1 X1.859 Y3.466 E0.07466
G1 X1.906 Y2.967 E0.05626
G1 X2.031 Y2.481 E0.05633
G1 X2.232 Y2.022 E0.05625
G1 X2.504 Y1.6 E0.05636
G1 X2.838 Y1.226 E0.05629
G1 X3.228 Y0.911 E0.05628
G1 X3.663 Y0.661 E0.05632
G1 X4.132 Y0.483 E0.05631
G1 X4.624 Y0.383 E0.05636
G1 X4.921 Y0.36 E0.03344
G1 X5.242 Y0.351 E0.03605
G1 X5.33 Y0.35 E0.00988
G1 X203.338 Y0.35 E22.22698
G1 X204.036 Y0.36 E0.07836
G1 X204.536 Y0.407 E0.05637
G1 X205.021 Y0.533 E0.05625
G1 X205.481 Y0.734 E0.05635
G1 X205.902 Y1.006 E0.05626
G1 X206.275 Y1.341 E0.05628
G1 X206.591 Y1.731 E0.05635
G1 X206.84 Y2.166 E0.05626
G1 X207.017 Y2.636 E0.05638
G1 X207.118 Y3.127 E0.05627
G1 X207.14 Y3.421 E0.03309
G1 X207.149 Y3.741 E0.03594
G1 X207.15 Y3.83 E0.00999
G1 X207.15 Y201.803 E22.22305
G1 X207.141 Y202.53 E0.08161
G1 X207.095 Y203.029 E0.05625
G1 X206.97 Y203.515 E0.05633
G1 X206.769 Y203.975 E0.05635
G1 X206.499 Y204.397 E0.05624
G1 X206.164 Y204.771 E0.05636
G1 X205.775 Y205.087 E0.05626
G1 X205.34 Y205.338 E0.05638
G1 F4200 E-3
G1 F2400 Z0.9
;MESH:Nautilus Offset Calibration 0.8.stl
G0 F9000 X23.75 Y22.25 Z0.9
;TYPE:WALL-INNER
G1 F2400 Z0.3
G1 F4200 E3
G1 F1200 X6.25 Y22.25 E1.96443
G1 X6.25 Y4.75 E1.96443
G1 X23.75 Y4.75 E1.96443
G1 X23.75 Y22.25 E1.96443
G1 F4200 E-3
G1 F2400 Z0.9
G0 F9000 X185.25 Y22.25 Z0.9
G1 F2400 Z0.3
G1 F4200 E3
G1 F1200 X185.25 Y4.75 E1.96443
G1 X202.75 Y4.75 E1.96443
G1 X202.75 Y22.25 E1.96443
G1 X185.25 Y22.25 E1.96443
G1 F4200 E-3
G1 F2400 Z0.9
G0 F9000 X185.25 Y183.75 Z0.9
G1 F2400 Z0.3
G1 F4200 E3
G1 F1200 X202.75 Y183.75 E1.96443
G1 X202.75 Y201.25 E1.96443
G1 X185.25 Y201.25 E1.96443
G1 X185.25 Y183.75 E1.96443
G1 F4200 E-3
G1 F2400 Z0.9
G0 F9000 X23.75 Y183.75 Z0.9
G1 F2400 Z0.3
G1 F4200 E3
G1 F1200 X23.75 Y201.25 E1.96443
G1 X6.25 Y201.25 E1.96443
G1 X6.25 Y183.75 E1.96443
G1 X23.75 Y183.75 E1.96443
G1 F4200 E-3
G1 F2400 Z0.9
G0 F9000 X184.4 Y201.3 Z0.9
;TYPE:WALL-OUTER
G1 F2400 Z0.3
G1 F4200 E3
G1 F1200 X184.4 Y182.9 E1.83596
G1 X202.8 Y182.9 E1.83596
G1 X202.8 Y23.1 E15.94491
G1 X184.4 Y23.1 E1.83596
G1 X184.4 Y4.7 E1.83596
G1 X24.6 Y4.7 E15.94491
G1 X24.6 Y23.1 E1.83596
G1 X6.2 Y23.1 E1.83596
G1 X6.2 Y182.9 E15.94491
G1 X24.6 Y182.9 E1.83596
G1 X24.6 Y201.3 E1.83596
G1 X184.4 Y201.3 E15.94491
G0 F9000 X184.4 Y200.9
G0 X185.28 Y200.9
G0 X184.4 Y202.1
G1 F1200 X24.6 Y202.1 E15.94491
G1 X5.4 Y202.1 E1.91578
G1 X5.4 Y182.9 E1.91578
G1 X5.4 Y23.1 E15.94491
G1 X5.4 Y3.9 E1.91578
G1 X24.6 Y3.9 E1.91578
G1 X184.4 Y3.9 E15.94491
G1 X203.6 Y3.9 E1.91578
G1 X203.6 Y23.1 E1.91578
G1 X203.6 Y182.9 E15.94491
G1 X203.6 Y202.1 E1.91578
G1 X184.4 Y202.1 E1.91578
G0 F9000 X184 Y202.1
G0 X186.14 Y200.36
;TYPE:SKIN
G1 F1200 X186.14 Y184.64 E1.76462
G1 X201.86 Y184.64 E1.76462
G1 X201.86 Y200.36 E1.76462
G1 X186.14 Y200.36 E1.76462
G0 F9000 X187.463 Y199.908
;TYPE:SKIN
G1 F1200 X186.589 Y199.034 E0.12333
G0 F9000 X186.589 Y197.902
G1 F1200 X188.595 Y199.908 E0.28307
G0 F9000 X189.726 Y199.908
G1 F1200 X186.589 Y196.771 E0.44266
G0 F9000 X186.589 Y195.64
G1 F1200 X190.858 Y199.908 E0.60233
G0 F9000 X191.989 Y199.908
G1 F1200 X186.589 Y194.508 E0.762
G0 F9000 X186.589 Y193.377
G1 F1200 X193.12 Y199.908 E0.92159
G0 F9000 X194.252 Y199.909
G1 F1200 X186.589 Y192.246 E1.08133
G0 F9000 X186.589 Y191.114
G1 F1200 X195.384 Y199.909 E1.24107
G0 F9000 X196.515 Y199.909
G1 F1200 X186.589 Y189.983 E1.40067
G0 F9000 X186.589 Y188.851
G1 F1200 X197.646 Y199.909 E1.56033
G0 F9000 X198.778 Y199.909
G1 F1200 X186.589 Y187.72 E1.72
G0 F9000 X186.589 Y186.589
G1 F1200 X199.909 Y199.909 E1.8796
G0 F9000 X201.041 Y199.909
G1 F1200 X186.589 Y185.457 E2.03933
G0 F9000 X187.352 Y185.09
G1 F1200 X201.409 Y199.146 E1.98352
G0 F9000 X201.409 Y198.015
G1 F1200 X188.484 Y185.09 E1.82386
G0 F9000 X189.615 Y185.09
G1 F1200 X201.409 Y196.883 E1.66419
G0 F9000 X201.409 Y195.752
G1 F1200 X190.747 Y185.09 E1.50452
G0 F9000 X191.878 Y185.09
G1 F1200 X201.409 Y194.621 E1.34493
G0 F9000 X201.409 Y193.489
G1 F1200 X193.009 Y185.09 E1.18526
G0 F9000 X194.141 Y185.09
G1 F1200 X201.409 Y192.358 E1.02559
G0 F9000 X201.409 Y191.227
G1 F1200 X195.272 Y185.09 E0.866
G0 F9000 X196.403 Y185.09
G1 F1200 X201.409 Y190.095 E0.70633
G0 F9000 X201.409 Y188.964
G1 F1200 X197.535 Y185.09 E0.54666
G0 F9000 X198.666 Y185.09
G1 F1200 X201.409 Y187.833 E0.38707
G0 F9000 X201.409 Y186.701
G1 F1200 X199.797 Y185.09 E0.2274
G0 F9000 X200.929 Y185.09
G1 F1200 X201.409 Y185.57 E0.06773
G1 F4200 E-3
G1 F2400 Z0.9
G0 F9000 X22.86 Y184.64 Z0.9
;TYPE:SKIN
G1 F2400 Z0.3
G1 F4200 E3
G1 F1200 X22.86 Y200.36 E1.76462
G1 X7.14 Y200.36 E1.76462
G1 X7.14 Y184.64 E1.76462
G1 X22.86 Y184.64 E1.76462
G0 F9000 X22.409 Y185.327
;TYPE:SKIN
G1 F1200 X22.172 Y185.089 E0.03351
G0 F9000 X21.04 Y185.089
G1 F1200 X22.409 Y186.458 E0.19318
G0 F9000 X22.409 Y187.589
G1 F1200 X19.909 Y185.089 E0.35278
G0 F9000 X18.777 Y185.089
G1 F1200 X22.409 Y188.721 E0.51251
G0 F9000 X22.409 Y189.852
G1 F1200 X17.646 Y185.089 E0.67211
G0 F9000 X16.515 Y185.089
G1 F1200 X22.409 Y190.983 E0.83171
G0 F9000 X22.409 Y192.115
G1 F1200 X15.383 Y185.089 E0.99144
G0 F9000 X14.252 Y185.089
G1 F1200 X22.409 Y193.246 E1.15104
G0 F9000 X22.409 Y194.377
G1 F1200 X13.121 Y185.089 E1.31064
G0 F9000 X11.989 Y185.089
G1 F1200 X22.409 Y195.509 E1.47037
G0 F9000 X22.409 Y196.64
G1 F1200 X10.858 Y185.089 E1.62997
G0 F9000 X9.726 Y185.089
G1 F1200 X22.409 Y197.772 E1.78971
G0 F9000 X22.409 Y198.903
G1 F1200 X8.595 Y185.089 E1.9493
G0 F9000 X7.59 Y185.215
G1 F1200 X22.283 Y199.908 E2.07334
G0 F9000 X21.152 Y199.908
G1 F1200 X7.59 Y186.346 E1.91374
G0 F9000 X7.59 Y187.478
G1 F1200 X20.021 Y199.908 E1.75408
G0 F9000 X18.889 Y199.908
G1 F1200 X7.59 Y188.609 E1.59441
G0 F9000 X7.59 Y189.74
G1 F1200 X17.758 Y199.908 E1.43481
G0 F9000 X16.626 Y199.908
G1 F1200 X7.59 Y190.872 E1.27508
G0 F9000 X7.59 Y192.003
G1 F1200 X15.495 Y199.908 E1.11548
G0 F9000 X14.364 Y199.908
G1 F1200 X7.59 Y193.134 E0.95588
G0 F9000 X7.59 Y194.266
G1 F1200 X13.232 Y199.908 E0.79615
G0 F9000 X12.101 Y199.908
G1 F1200 X7.59 Y195.397 E0.63655
G0 F9000 X7.59 Y196.529
G1 F1200 X10.97 Y199.908 E0.47688
G0 F9000 X9.838 Y199.908
G1 F1200 X7.59 Y197.66 E0.31722
G0 F9000 X7.59 Y198.791
G1 F1200 X8.707 Y199.908 E0.15762
G1 F4200 E-3
G1 F2400 Z0.9
G0 F9000 X7.14 Y21.36 Z0.9
;TYPE:SKIN
G1 F2400 Z0.3
G1 F4200 E3
G1 F1200 X7.14 Y5.64 E1.76462
G1 X22.86 Y5.64 E1.76462
G1 X22.86 Y21.36 E1.76462
G1 X7.14 Y21.36 E1.76462
G0 F9000 X8.464 Y20.909
;TYPE:SKIN
G1 F1200 X7.589 Y20.034 E0.12347
G0 F9000 X7.589 Y18.903
G1 F1200 X9.595 Y20.909 E0.28307
G0 F9000 X10.726 Y20.909
G1 F1200 X7.589 Y17.771 E0.44274
G0 F9000 X7.589 Y16.64
G1 F1200 X11.858 Y20.909 E0.6024
G0 F9000 X12.989 Y20.909
G1 F1200 X7.589 Y15.508 E0.76207
G0 F9000 X7.589 Y14.377
G1 F1200 X14.12 Y20.909 E0.92167
G0 F9000 X15.252 Y20.909
G1 F1200 X7.589 Y13.246 E1.08133
G0 F9000 X7.589 Y12.114
G1 F1200 X16.383 Y20.909 E1.241
G0 F9000 X17.515 Y20.909
G1 F1200 X7.589 Y10.983 E1.40067
G0 F9000 X7.589 Y9.852
G1 F1200 X18.646 Y20.909 E1.56026
G0 F9000 X19.777 Y20.909
G1 F1200 X7.589 Y8.72 E1.71993
G0 F9000 X7.589 Y7.589
G1 F1200 X20.909 Y20.909 E1.8796
G0 F9000 X22.04 Y20.909
G1 F1200 X7.589 Y6.458 E2.03919
G0 F9000 X8.353 Y6.09
G1 F1200 X22.408 Y20.146 E1.98338
G0 F9000 X22.408 Y19.014
G1 F1200 X9.484 Y6.09 E1.82372
G0 F9000 X10.615 Y6.09
G1 F1200 X22.408 Y17.883 E1.66412
G0 F9000 X22.408 Y16.752
G1 F1200 X11.747 Y6.09 E1.50445
G0 F9000 X12.878 Y6.09
G1 F1200 X22.408 Y15.62 E1.34479
G0 F9000 X22.408 Y14.489
G1 F1200 X14.009 Y6.09 E1.18519
G0 F9000 X15.141 Y6.09
G1 F1200 X22.408 Y13.357 E1.02545
G0 F9000 X22.408 Y12.226
G1 F1200 X16.272 Y6.09 E0.86586
G0 F9000 X17.404 Y6.09
G1 F1200 X22.408 Y11.095 E0.70619
G0 F9000 X22.408 Y9.963
G1 F1200 X18.535 Y6.09 E0.54652
G0 F9000 X19.666 Y6.09
G1 F1200 X22.408 Y8.832 E0.38693
G0 F9000 X22.408 Y7.701
G1 F1200 X20.798 Y6.09 E0.22726
G0 F9000 X21.929 Y6.09
G1 F1200 X22.408 Y6.569 E0.06759
G1 F4200 E-3
G1 F2400 Z0.9
G0 F9000 X186.14 Y5.64 Z0.9
;TYPE:SKIN
G1 F2400 Z0.3
G1 F4200 E3
G1 F1200 X201.86 Y5.64 E1.76462
G1 X201.86 Y21.36 E1.76462
G1 X186.14 Y21.36 E1.76462
G1 X186.14 Y5.64 E1.76462
G1 F4200 E-3
G1 F2400 Z0.9
G0 F9000 X201.409 Y6.813 Z0.9
;TYPE:SKIN
G1 F2400 Z0.3
G1 F4200 E3
G1 F1200 X200.686 Y6.09 E0.10202
G0 F9000 X199.554 Y6.09
G1 F1200 X201.409 Y7.945 E0.26176
G0 F9000 X201.409 Y9.076
G1 F1200 X198.423 Y6.09 E0.42136
G0 F9000 X197.291 Y6.09
G1 F1200 X201.409 Y10.207 E0.58102
G0 F9000 X201.409 Y11.339
G1 F1200 X196.16 Y6.09 E0.74069
G0 F9000 X195.029 Y6.09
G1 F1200 X201.409 Y12.47 E0.90029
G0 F9000 X201.409 Y13.601
G1 F1200 X193.897 Y6.09 E1.05995
G0 F9000 X192.766 Y6.09
G1 F1200 X201.409 Y14.733 E1.21962
G0 F9000 X201.409 Y15.864
G1 F1200 X191.635 Y6.09 E1.37922
G0 F9000 X190.503 Y6.09
G1 F1200 X201.409 Y16.996 E1.53895
G0 F9000 X201.409 Y18.127
G1 F1200 X189.372 Y6.09 E1.69855
G0 F9000 X188.241 Y6.09
G1 F1200 X201.409 Y19.258 E1.85815
G0 F9000 X201.409 Y20.39
G1 F1200 X187.109 Y6.09 E2.01788
G0 F9000 X186.589 Y6.701
G1 F1200 X200.797 Y20.909 E2.0049
G0 F9000 X199.666 Y20.909
G1 F1200 X186.589 Y7.832 E1.84531
G0 F9000 X186.589 Y8.963
G1 F1200 X198.535 Y20.909 E1.68571
G0 F9000 X197.403 Y20.909
G1 F1200 X186.589 Y10.095 E1.52597
G0 F9000 X186.589 Y11.226
G1 F1200 X196.272 Y20.909 E1.36638
G0 F9000 X195.14 Y20.909
G1 F1200 X186.589 Y12.358 E1.20664
G0 F9000 X186.589 Y13.489
G1 F1200 X194.009 Y20.909 E1.04704
G0 F9000 X192.878 Y20.909
G1 F1200 X186.589 Y14.62 E0.88745
G0 F9000 X186.589 Y15.752
G1 F1200 X191.746 Y20.909 E0.72771
G0 F9000 X190.615 Y20.909
G1 F1200 X186.589 Y16.883 E0.56811
G0 F9000 X186.589 Y18.014
G1 F1200 X189.484 Y20.909 E0.40852
G0 F9000 X188.352 Y20.909
G1 F1200 X186.589 Y19.146 E0.24878
G0 F9000 X186.589 Y20.277
G1 F1200 X187.221 Y20.909 E0.08918
;TIME_ELAPSED:221.974395
G1 F4200 E-3
M140 S0
M204 P1300
M204 T1300
M82 ;absolute extrusion mode
G1 E-2 F2000 ; retract filament
M107 ; turn off fan
G28 Z ; home z
G1 X200 Y200 F3000 ; move to cooling position
M140 S50 ; turn off bed
M104 S0 ; turn off extruder
G90 ; absolute positioning
M291 P"Please wait. Cooling to part removal temperature of 50C. Open door to speed up cooldown." R"Heatbed Cooling" S1 T0
M190 R50 ; Wait to reach removal temp
M300 S250 P1000 ; Play notification beep
M291 P"You may now remove your part. CAUTION! Print Surface may still be HOT!" R"Print Finished." S2
M140 S0; Turn off bed
M83 ;relative extrusion mode
M291 P"Write down the baby stepping Z-value that will be displayed after pressing ""OK.""" R"Tool Offset Calibration" S2
G4 P500
M290                                                                          ; Report baby stepping value
M290 R0 S0                                                                    ; Clear baby stepping
G4 S1
;End of Gcode
;SETTING_3 {"global_quality": "[general]\\nversion = 4\\nname = Fast #2\\ndefini
;SETTING_3 tion = hydra_research_nautilus\\n\\n[metadata]\\ntype = quality_chang
;SETTING_3 es\\nsetting_version = 6\\nquality_type = draft\\n\\n[values]\\n\\n",
;SETTING_3  "extruder_quality": ["[general]\\nversion = 4\\nname = Fast #2\\ndef
;SETTING_3 inition = hydra_research_nautilus\\n\\n[metadata]\\ntype = quality_ch
;SETTING_3 anges\\nsetting_version = 6\\nposition = 0\\nquality_type = draft\\n\
;SETTING_3 \n[values]\\nxy_offset_layer_0 = 0\\n\\n"]}
