;FLAVOR:RepRap
;TIME:209
;Filament used: 0.466769m
;Layer height: 0.2
;Generated with Cura_SteamEngine 4.0.0
T0
M82 ;absolute extrusion mode
M291 P"Tool Cartridge: X 800, Material: PLA, and Print Surface: PEI" R"This Calibration Uses" S3
M104 S225 T0 ; set extruder temp
M140 S45 ; set bed temp
M98 P/sys/X 800 Offset.g ; Call tool offset
M98 P/sys/probeauto.g ; conduct auto bed level compensation
G1 X-8 Y20 F6000 ; position over purge bucket
M190 S45 ; wait for bed temp
M109 S225 T0; wait for extruder temp
M83
M572 D0 S0.03 ; set material pressure advance value
T0
;M221 S95
M116 ; Wait for temperatures
M291 P"Once printing has begun, use Baby Stepping to adjust the nozzle offset until you have a good first layer" R"Tool Offset Calibration" S2
G1 E20 F80 ; Prime
M98 P/sys/wipe.g ; wipe
M83 ;relative extrusion mode
G1 F1500 E-1
;LAYER_COUNT:2
;LAYER:0
M107
M204 T1200
M566 X480 Y480
G0 F9000 X137.449 Y184.375 Z0.5
M204 P1200
;TYPE:SKIRT
G1 F1500 E1.10643
G1 F1200 X137.254 Y184.835 E0.08258
G1 X136.988 Y185.257 E0.08245
G1 X136.658 Y185.632 E0.08257
G1 X136.273 Y185.949 E0.08243
G1 X135.842 Y186.201 E0.08252
G1 X135.377 Y186.381 E0.08242
G1 X134.888 Y186.484 E0.0826
G1 X134.489 Y186.51 E0.06609
G1 X114.487 Y186.508 E3.30618
G1 X114.221 Y186.497 E0.04401
G1 X111.391 Y186.255 E0.46948
G1 X105.917 Y186.023 E0.90562
G1 X100.417 Y186.101 E0.9092
G1 X94.722 Y186.501 E0.94366
G1 X94.503 Y186.509 E0.03622
G1 X74.51 Y186.509 E3.30469
G1 X74.289 Y186.501 E0.03655
G1 X68.654 Y186.101 E0.93377
G1 X63.186 Y186.023 E0.90391
G1 X54.665 Y186.505 E1.41071
G1 X54.488 Y186.51 E0.02927
G1 X34.508 Y186.501 E3.30254
G1 X34.01 Y186.461 E0.08258
G1 X33.525 Y186.342 E0.08254
G1 X33.066 Y186.147 E0.08243
G1 X32.643 Y185.881 E0.08259
G1 X32.268 Y185.552 E0.08246
G1 X31.951 Y185.167 E0.08243
G1 X31.699 Y184.736 E0.08252
G1 X31.519 Y184.27 E0.08257
G1 X31.416 Y183.782 E0.08244
G1 X31.39 Y183.382 E0.06626
G1 X31.391 Y23.409 E26.44233
G1 X31.431 Y22.911 E0.08258
G1 X31.55 Y22.427 E0.08238
G1 X31.744 Y21.967 E0.08252
G1 X32.01 Y21.544 E0.08259
G1 X32.339 Y21.169 E0.08246
G1 X32.724 Y20.852 E0.08243
G1 X33.155 Y20.6 E0.08252
G1 X33.62 Y20.42 E0.08242
G1 X34.109 Y20.316 E0.08264
G1 X34.589 Y20.291 E0.07945
G1 X38.766 Y20.397 E0.69065
G1 X44.289 Y20.319 E0.913
G1 X49.753 Y19.933 E0.90541
G1 X53.348 Y19.511 E0.59831
G1 X53.71 Y19.49 E0.05994
G1 X74.592 Y19.481 E3.45164
G1 X74.781 Y19.487 E0.03126
G1 X80.405 Y19.826 E0.93129
G1 X85.921 Y19.901 E0.91184
G1 X91.408 Y19.666 E0.90779
G1 X93.458 Y19.5 E0.33996
G1 X93.709 Y19.49 E0.04152
G1 X114.592 Y19.481 E3.4518
G1 X114.747 Y19.485 E0.02563
G1 X123.176 Y19.903 E1.39496
G1 X128.678 Y19.822 E0.90954
G1 X133.828 Y19.488 E0.85304
G1 X134.031 Y19.481 E0.03357
G1 X174.492 Y19.491 E6.6879
G1 X174.989 Y19.531 E0.08242
G1 X175.474 Y19.65 E0.08254
G1 X175.934 Y19.845 E0.08258
G1 X176.356 Y20.11 E0.08237
G1 X176.731 Y20.44 E0.08257
G1 X177.049 Y20.825 E0.08254
G1 X177.301 Y21.256 E0.08252
G1 X177.481 Y21.721 E0.08242
G1 X177.584 Y22.209 E0.08244
G1 X177.61 Y22.61 E0.06642
G1 X177.609 Y72.595 E8.26214
G1 X177.569 Y73.093 E0.08258
G1 X177.45 Y73.577 E0.08238
G1 X177.256 Y74.037 E0.08252
G1 X176.99 Y74.46 E0.08259
G1 X176.661 Y74.835 E0.08246
G1 X176.442 Y75.028 E0.04825
G1 X171.482 Y79.008 E1.05116
G1 X167.416 Y82.693 E0.90703
G1 X165.518 Y84.566 E0.44076
G1 X161.75 Y88.614 E0.91412
G1 X158.252 Y92.824 E0.90474
G1 X154.992 Y97.236 E0.90675
G1 X151.989 Y101.821 E0.90595
G1 X149.254 Y106.56 E0.90441
G1 X146.785 Y111.458 E0.90665
G1 X144.609 Y116.462 E0.90194
G1 X142.702 Y121.628 E0.91022
G1 X141.1 Y126.86 E0.90444
G1 X139.781 Y132.232 E0.91433
G1 X139.259 Y134.844 E0.44028
G1 X138.406 Y140.276 E0.90887
G1 X137.863 Y145.744 E0.90826
G1 X137.629 Y151.231 E0.90778
G1 X137.608 Y183.393 E5.31614
G1 X137.577 Y183.779 E0.06401
G0 F300 X137.568 Y183.891
G0 X137.449 Y184.375
G1 F1500 E-1
G1 F2400 Z0.9
;MESH:X 800 Cal.stl
G0 F9000 X155.662 Y71.438 Z0.9
;TYPE:WALL-INNER
G1 F2400 Z0.5
G1 F1500 E1.20743
G1 F1200 X155.662 Y23.762 E7.88048
G1 X173.338 Y23.762 E2.92171
G1 X173.338 Y71.438 E7.88048
G1 X156.273 Y71.438 E2.82072
G0 F300 X155.662 Y71.438
G1 F1500 E-1
G1 F2400 Z0.9
G0 F9000 X114.928 Y182.972 Z0.9
;TYPE:WALL-OUTER
G1 F2400 Z0.5
G1 F1500 E1.20743
G1 F1200 X134.072 Y182.972 E2.81276
G1 X134.072 Y23.028 E23.50004
G1 X134.072 Y22.972 E0.00823
G1 X134.128 Y22.972 E0.00449
G1 X154.872 Y22.972 E3.04785
G1 X174.128 Y22.972 E2.82922
G1 X174.128 Y72.228 E7.23702
G1 X154.872 Y72.228 E2.82922
G1 X154.872 Y23.028 E7.22879
G1 X134.128 Y23.028 E0.22941
G1 X134.128 Y182.972 E1.76882
G1 X134.128 Y183.028 E0.00449
G1 X134.072 Y183.028 E0.00449
G1 X114.928 Y183.028 E0.21171
G1 X114.872 Y183.028 E0.00823
G1 X114.872 Y182.972 E0.00449
G1 X114.872 Y23.028 E23.50004
G1 X94.128 Y23.028 E3.04785
G1 X94.128 Y182.972 E23.50004
G1 X94.128 Y183.028 E0.00823
G1 X94.072 Y183.028 E0.00449
G1 X74.928 Y183.028 E2.81276
G1 X74.872 Y183.028 E0.00823
G1 X74.872 Y182.972 E0.00449
G1 X74.872 Y23.028 E23.50004
G1 X54.128 Y23.028 E3.04785
G1 X54.128 Y182.972 E23.50004
G1 X54.128 Y183.028 E0.00823
G1 X54.072 Y183.028 E0.00449
G1 X34.928 Y183.028 E2.81276
G1 X34.872 Y183.028 E0.00823
G1 X34.872 Y182.972 E0.00449
G1 X34.872 Y23.772 E23.39072
G1 X34.928 Y23.772 E0.00823
G1 X34.928 Y182.972 E1.76059
G1 X54.072 Y182.972 E0.21171
G1 X54.072 Y23.028 E1.76882
G1 X54.072 Y22.972 E0.00449
G1 X54.128 Y22.972 E0.00449
G1 X74.872 Y22.972 E0.22941
G1 X74.928 Y22.972 E0.00449
G1 X74.928 Y23.028 E0.00449
G1 X74.928 Y182.972 E1.76882
G1 X94.072 Y182.972 E0.21171
G1 X94.072 Y23.028 E1.76882
G1 X94.072 Y22.972 E0.00449
G1 X94.128 Y22.972 E0.00449
G1 X114.872 Y22.972 E0.22941
G1 X114.928 Y22.972 E0.00449
G1 X114.928 Y23.028 E0.00449
G1 X114.928 Y182.972 E1.76882
G0 F9000 X116.528 Y182.972
G1 F1500 E-1
G1 F2400 Z0.9
G0 F9000 X156.488 Y70.612 Z0.9
;TYPE:SKIN
G1 F2400 Z0.5
G1 F1500 E1.10643
G1 F1200 X156.488 Y24.588 E7.60742
G1 X172.512 Y24.588 E2.64865
G1 X172.512 Y70.612 E7.60742
G1 X157.099 Y70.612 E2.54765
G0 F300 X156.488 Y70.612
G0 F9000 X157.309 Y70.193
;TYPE:SKIN
G1 F1500 E0.10099
G1 F1200 X156.904 Y69.789 E0.09038
G0 F9000 X156.904 Y68.657
G1 F1200 X158.44 Y70.193 E0.34318
G0 F9000 X159.572 Y70.193
G1 F1200 X156.904 Y67.526 E0.59599
G0 F9000 X156.904 Y66.395
G1 F1200 X160.703 Y70.193 E0.84868
G0 F9000 X161.834 Y70.193
G1 F1200 X156.904 Y65.263 E1.10149
G0 F9000 X156.904 Y64.132
G1 F1200 X162.966 Y70.193 E1.35429
G0 F9000 X164.097 Y70.193
G1 F1200 X156.904 Y63.001 E1.60699
G0 F9000 X156.904 Y61.869
G1 F1200 X165.228 Y70.193 E1.85979
G0 F9000 X166.36 Y70.193
G1 F1200 X156.904 Y60.738 E2.1126
G0 F9000 X156.904 Y59.606
G1 F1200 X167.491 Y70.193 E2.36541
G0 F9000 X168.623 Y70.193
G1 F1200 X156.904 Y58.475 E2.61821
G0 F9000 X156.904 Y57.344
G1 F1200 X169.754 Y70.193 E2.87091
G0 F9000 X170.885 Y70.193
G1 F1200 X156.904 Y56.212 E3.12371
G0 F9000 X156.904 Y55.081
G1 F1200 X172.017 Y70.193 E3.37652
G0 F9000 X172.093 Y69.138
G1 F1200 X156.904 Y53.95 E3.3935
G0 F9000 X156.904 Y52.818
G1 F1200 X172.093 Y68.007 E3.39361
G0 F9000 X172.093 Y66.876
G1 F1200 X156.904 Y51.687 E3.39361
G0 F9000 X156.904 Y50.556
G1 F1200 X172.093 Y65.744 E3.3935
G0 F9000 X172.093 Y64.613
G1 F1200 X156.904 Y49.424 E3.39361
G0 F9000 X156.904 Y48.293
G1 F1200 X172.093 Y63.481 E3.3935
G0 F9000 X172.093 Y62.35
G1 F1200 X156.904 Y47.161 E3.39361
G0 F9000 X156.904 Y46.03
G1 F1200 X172.093 Y61.219 E3.39361
G0 F9000 X172.093 Y60.087
G1 F1200 X156.904 Y44.899 E3.3935
G0 F9000 X156.904 Y43.767
G1 F1200 X172.093 Y58.956 E3.39361
G0 F9000 X172.093 Y57.825
G1 F1200 X156.904 Y42.636 E3.39361
G0 F9000 X156.904 Y41.505
G1 F1200 X172.093 Y56.693 E3.3935
G0 F9000 X172.093 Y55.562
G1 F1200 X156.904 Y40.373 E3.39361
G0 F9000 X156.904 Y39.242
G1 F1200 X172.093 Y54.43 E3.3935
G0 F9000 X172.093 Y53.299
G1 F1200 X156.904 Y38.11 E3.39361
G0 F9000 X156.904 Y36.979
G1 F1200 X172.093 Y52.168 E3.39361
G0 F9000 X172.093 Y51.036
G1 F1200 X156.904 Y35.848 E3.3935
G0 F9000 X156.904 Y34.716
G1 F1200 X172.093 Y49.905 E3.39361
G0 F9000 X172.093 Y48.774
G1 F1200 X156.904 Y33.585 E3.39361
G0 F9000 X156.904 Y32.454
G1 F1200 X172.093 Y47.642 E3.3935
G0 F9000 X172.093 Y46.511
G1 F1200 X156.904 Y31.322 E3.39361
G0 F9000 X156.904 Y30.191
G1 F1200 X172.093 Y45.379 E3.3935
G0 F9000 X172.093 Y44.248
G1 F1200 X156.904 Y29.059 E3.39361
G0 F9000 X156.904 Y27.928
G1 F1200 X172.093 Y43.117 E3.39361
G0 F9000 X172.093 Y41.985
G1 F1200 X156.904 Y26.797 E3.3935
G0 F9000 X156.904 Y25.665
G1 F1200 X172.093 Y40.854 E3.39361
G0 F9000 X172.093 Y39.723
G1 F1200 X157.376 Y25.006 E3.28815
G0 F9000 X158.507 Y25.006
G1 F1200 X172.093 Y38.591 E3.03535
G0 F9000 X172.093 Y37.46
G1 F1200 X159.639 Y25.006 E2.78254
G0 F9000 X160.77 Y25.006
G1 F1200 X172.093 Y36.329 E2.52985
G0 F9000 X172.093 Y35.197
G1 F1200 X161.901 Y25.006 E2.27704
G0 F9000 X163.033 Y25.006
G1 F1200 X172.093 Y34.066 E2.02423
G0 F9000 X172.093 Y32.934
G1 F1200 X164.164 Y25.006 E1.77143
G0 F9000 X165.296 Y25.006
G1 F1200 X172.093 Y31.803 E1.51862
G0 F9000 X172.093 Y30.672
G1 F1200 X166.427 Y25.006 E1.26593
G0 F9000 X167.558 Y25.006
G1 F1200 X172.093 Y29.54 E1.01312
G0 F9000 X172.093 Y28.409
G1 F1200 X168.69 Y25.006 E0.76032
G0 F9000 X169.821 Y25.006
G1 F1200 X172.093 Y27.278 E0.50762
G0 F9000 X172.093 Y26.146
G1 F1200 X170.952 Y25.006 E0.25482
G1 X170.528 Y24.582
;TIME_ELAPSED:209.437350
G1 F1500 E-1
M140 S0
M204 P1300
M204 T1300
M82 ;absolute extrusion mode
G1 E-2 F2000 ; retract filament
M107 ; turn off fan
G28 Z ; home z
G1 X200 Y200 F3000 ; move to cooling position
M140 S50 ; turn off bed
M104 S0 ; turn off extruder
G90 ; absolute positioning
M291 P"Please wait. Cooling to part removal temperature of 50C. Open door to speed up cooldown." R"Heatbed Cooling" S1 T0
M190 R50 ; Wait to reach removal temp
M300 S250 P1000 ; Play notification beep
M291 P"You may now remove your part. CAUTION! Print Surface may still be HOT!" R"Print Finished." S2
M140 S0; Turn off bed
M83 ;relative extrusion mode
M291 P"Write down the babystepping value that will be displayed after pressing ""OK."" R"Tool Offset Calibration" S2
M290                                                                          ; Report babystepping vlaue
M290 R0 S0                                                                    ; Clear babystepping
;End of Gcode
;SETTING_3 {"global_quality": "[general]\\nversion = 4\\nname = Fast #2\\ndefini
;SETTING_3 tion = hydra_research_nautilus\\n\\n[metadata]\\ntype = quality_chang
;SETTING_3 es\\nsetting_version = 6\\nquality_type = draft\\n\\n[values]\\n\\n",
;SETTING_3  "extruder_quality": ["[general]\\nversion = 4\\nname = Fast #2\\ndef
;SETTING_3 inition = hydra_research_nautilus\\n\\n[metadata]\\ntype = quality_ch
;SETTING_3 anges\\nsetting_version = 6\\nposition = 0\\nquality_type = draft\\n\
;SETTING_3 \n[values]\\nxy_offset_layer_0 = 0\\n\\n"]}
